!!!!SEGMENT: pl-wtm--r-2011_smietanski-emil-wladyslaw--caprise-sur-un-theme-cracovien.krn
!!!cenid: 18xx:1971
!!!COM: Śmietański, Emil Władysław
!!!COM-rismID:
!!!CDT: 1845-1886
!!!CNT: Polish
!!!OTL: Caprise sur un theme - Cracovien
!!!PDT: 1866
!!!AGN: Secular; Cracow
!!!SMS-siglum: PL-Wtm
!!!SMS-shelfmark: R 2011
!!!SMS-shelfwork: W
!!!SMS-variant:
!!!SMS-altvar:
!!!NIFC-rismSourceID: 1001114806
!!!NIFC-islandoraID: pl-wtm:29397
!!!URL-pdf-islandora: https://repozytorium.nifc.pl/islandora/object/pl-wtm%3A29397/datastream/PDF/view
!!!URL-scan: https://polish.musicsources.pl/pl/lokalizacje/galeria/rekopisy/6504 @EN{Scan on Polish Music Herritage in Open Access Website} @PL{Skany w portalu Dziedzictwo Muzyki Polskiej w otwartym dostępie}
!!!ONB-nifc:
!!!AIN: 1 piano
!!!key:
**kern	**kern
*part1	*part1
*staff2	*staff1
*Ipiano	*Ipiano
*I"Piano	*I"Piano
*I'P-no	*I'P-no
*clefF4	*clefG2
*k[b-e-a-]	*k[b-e-a-]
*E-:	*E-:
*M4/4	*M4/4
*met(c)	*met(c)
*>[A,B,C,C,D,D,E,E,F,F,G,B,H]	*
=1	=1
*>A	*
!	!LO:TX:t=P:problem=all\right&colon; global
!	!LO:SIC:t=Drogi Humdrumowiczu.\nUtwór męczący, choć względnie nieźle zapisany.\nDużo tu szesnastek, nut które uznałem za tremolo. \nW kilku miejscach ilość trzydziestodwójek/64 była za duża odrobinę - \n-wtedy zmieniałem ich wartość na grupy niemiarowe. Ale jeśli nut było \njuż ewidentnie dużo za dużo -wtedy wydłużałem takt. \nZdarzyło się to dwa razy&colon; 55 i 153
!	!LO:TX:a:t=Maestoso
32qqEEE-\ 32qqEE-\	32qqE-</
4EEE-\ 4EE-\	4E-</
4r	4ryy
32qqE-\ 32qqB-\ 32qqe-\	32qqg\ 32qqee-\ 32qqgg\
4E-\ 4B-\ 4e-\	4g\ 4ee-\ 4gg\
4r	4r
=2	=2
32qqDDD\ 32qqDD\	32qqD</
4DDD\ 4DD\	4D</
4r	4ryy
32qqD\ 32qqB-\ 32qqd\	32qqb-\ 32qqff\ 32qqbb-\
4D\ 4B-\ 4d\	4b-\ 4ff\ 4bb-\
4r	4r
=3	=3
4.CCC/ 4.CC/ 4.C/	4.ee-\ 4.gg\ 4.eee-\
8DDD/ 8DD/ 8D/	8b-\ 8ff\ 8bb-\
4EEE-/ 4EE-/ 4E-/	4g\ 4ee-\ 4gg\
4GGG/ 4GG/ 4G/	4e-\ 4b-\ 4ee-\
=4	=4
*	*2\right
2BBB-/ 2BB-/ 2B-/	[2f\ 2ee-\ [2bb-\
4r	4f\] 4dd\ 4bb-\]
8AAA-\L 8AA-\	8A-</L
8GGG\J 8GG\	8G</J
=5	=5
32qqFFF\ 32qqFF\	32qqF</
4FFF\ 4FF\	4F</
4r	4ryy
32qqF\ 32qqc\ 32qqf\	32qqa-\ 32qqcc\ 32qqaa-\
4F\ 4c\ 4f\	4a-\ 4cc\ 4aa-\
4r	4r
!!LO:LB:g=original
=6	=6
32qqEEEn\ 32qqEEn\	32qqEn</
4EEE\ 4EE\	4E</
4r	4ryy
32qqEn\ 32qqc\ 32qqen\	32qqcc\ 32qqgg\ 32qqccc\
4E\ 4c\ 4e\	4cc\ 4gg\ 4ccc\
4r	4r
=7	=7
4.FFF/ 4.FF/ 4.F/	4.ff\ 4.aa-\ 4.fff\
8GGG/ 8GG/ 8G/	8cc\ 8ff\ 8ccc\
4AAA-/ 4AA-/ 4A-/	4a-\ 4cc\ 4aa-\
4CC/ 4C/ 4c/	4e-\ 4a-\ 4ff\
=8	=8
4BBB-/ 4BB-/ 4B-/	2.d\ 2.a-\ 2.ff\
*tremolo	*
!LO:TX:a:t=trem	!
32BBBB-/LLL	.
32BBB-/	.
32BBBB-/	.
32BBB-/	.
32BBBB-/	.
32BBB-/	.
32BBBB-/	.
32BBB-/	.
32BBBB-/	.
32BBB-/	.
32BBBB-/	.
32BBB-/	.
32BBBB-/	.
32BBB-/	.
32BBBB-/	.
32BBB-/	.
32BBBB-/	8.r
32BBB-/	.
32BBBB-/	.
32BBB-/	.
32BBBB-/	.
32BBB-/	.
32BBBB-/	16e-\ 16g\ 16ee-\
32BBB-/JJJ	.
*Xtremolo	*
=9	=9
2EEE-/ 2EE-/ 2E-/	2e-\ 2g\ 2ee-\
2r;	2r;
=10||	=10||
*>B	*
*Xtuplet	*
!	!LO:TX:a:t=[segno]
!	!LO:TX:a:t=Con passione
12CC/L	4.e-\ 4.cc\ 4.ee-\
12GG/	.
12C/	.
12C/	.
12G/	.
.	8f\ 8ff\
12d/J	.
12e-/L	8g\L 8gg\
12G/	.
.	8a-\ 8cc\ 8aa-\
12F/	.
12E-/	8g\ 8gg\
12GG/	.
.	8f#X\J 8cc\ 8ff#X\
12D/J	.
!!LO:LB:g=original
=11	=11
12CC/L	4g\ 4gg\
12GG/	.
12E-/	.
12C/	4ee-\ 4gg\ 4eee-\
12G/	.
12e-/J	.
12d/L	4bn\ 4ff\ 4bbn\
12A-/	.
12C/	.
12E-/	4cc\ 4ee-\ 4ccc\
12GG/	.
12CC/J	.
=12	=12
12FF/L	4.a-\ 4.ff\ 4.aa-\
12C/	.
12F/	.
12F/	.
12c/	.
.	8b-\ 8bb-\
12g/J	.
12a-/L	8cc\L 8ccc\
12c/	.
.	8dd-X\ 8ff\ 8ddd-X\
12B-/	.
12A-/	8cc\ 8ccc\
12C/	.
.	8bn\J 8ff\ 8bbn\
12G/J	.
=13	=13
12FF/L	4cc\ 4ccc\
12C/	.
12A-/	.
12F/	4aa-\ 4ccc\ 4aaa-\
12c/	.
12a-/J	.
12g/L	4een\ 4bb-\ 4eeen\
12d-X/	.
12F/	.
12A-/	4ff\ 4ccc\ 4fff\
12C/	.
12FF/J	.
=14	=14
12DD/L	4.ff\ 4.ccc\ 4.fff\
12AA-/	.
12F/	.
12D/	.
12A-/	.
.	8ee-\ 8eee-\
12f/J	.
12f/L	4dd\ 4aa-\ 4ddd\
12A-/	.
12D/	.
12F/	4cc\ 4aa-\ 4ccc\
12AA-/	.
12DD/J	.
!!LO:LB:g=original
=15	=15
12DD/L	4cc\ 4ccc\
12GG/	.
12F/	.
12D/	2bn\ 2gg\ 2bbn\
12G/	.
12f/J	.
12f/L	.
12G/	.
12D/	.
12F/	4b\ 4gg\ 4bb\
12GG/	.
12DD/J	.
=16	=16
12CC/L	8cc\L 8ccc\
12GG/	.
.	8ee-\ 8eee-\
12C/	.
12C/	8dd\ 8gg\ 8ddd\
12G/	.
.	8ee-\J 8eee-\
12c/J	.
12A-/L	8ff\L 8ccc\ 8fff\
12F/	.
.	8ee-\ 8eee-\
12C/	.
12E-/	8dd\ 8ddd\
12FF#X/	.
.	8cc\J 8ccc\
12AAA-/J	.
=17	=17
12GGG/L	4cc\ 4ccc\
12GG/	.
12D/	.
12G/	2bn\ 2gg\ 2bbn\
12D/	.
12G/J	.
12d\L	.
12G\	.
12d\	.
12g\	4b\ 4bb\
12d\	.
12g\J	.
=18	=18
12e-\L	4.cc\ 4.ccc\
12g\	.
12e-\	.
12d\	.
12f\	.
.	8b-X\ 8bb-X\
12d\J	.
12c\L	4an\ 4aan\
12e-\	.
12c\	.
12B-\	4g\ 4gg\
12d\	.
12B-\J	.
=19	=19
12DD/L	4g\ 4gg\
12AAn/	.
12E-/	.
12D/	2f#X\ 2cc\ 2ff#X\
12An/	.
12e-/J	.
12d/L	.
12A/	.
12D/	.
12D/	4f#\ 4ff#\
12AA/	.
12DD/J	.
!!LO:LB:g=original
=20	=20
12EE-/L	8g\L 8gg\
12C/	.
.	8b-\ 8bb-\
12G/	.
12E-/	8an\ 8aan\
12B-/	.
.	8b-\J 8bb-\
12f#X/J	.
12g\L	8ee-\L 8eee-\
12B-\	.
.	8b-\ 8bb-\
12E-\	.
12G\	8a\ 8aa\
12C#X\	.
.	8g\J 8gg\
12EE-\J	.
=21	=21
12DD/L	4g\ 4gg\
12AAn/	.
12E-/	.
12D/	2f#X\ 2cc\ 2ff#X\
12An/	.
12e-/J	.
12d/L	.
12A/	.
12D/	.
12D/	4f#\ 4ff#\
12AA/	.
12DD/J	.
=22	=22
12DD/L	4f#X\ 4ff#X\
12AA-X/	.
12E-/	.
12D/	2fn\ 2cc\ 2ffn\
12A-X/	.
12e-/J	.
12d/L	.
12A-/	.
12D/	.
12D/	4f\ 4ff\
12AA-/	.
12DD/J	.
=23	=23
12GGG/L	[1f\ [1bn\ [1ff\
12GG/	.
12D/	.
12G/	.
12D/	.
12G/J	.
12d\L	.
12G\	.
12d\	.
12g\	.
12d\	.
12g\J	.
=24	=24
12d\L	2f\] 2b\] 2ff\]
12G\	.
12d\	.
12G\	.
12D\	.
12G\J	.
12D/L	2r
12GG/	.
12D/	.
12GG/	.
12DD/	.
12GG/J	.
!!LO:LB:g=original
=25	=25
12CC/L	4.e-\ 4.cc\ 4.ee-\
12GG/	.
12C/	.
12C/	.
12G/	.
.	8f\ 8ff\
12d/J	.
12e-/L	8g\L 8gg\
12G/	.
.	8a-\ 8cc\ 8aa-\
12F/	.
12E-/	8g\ 8gg\
12GG/	.
.	8f#X\J 8cc\ 8ff#X\
12D/J	.
=26	=26
12CC/L	4g\ 4gg\
12GG/	.
12E-/	.
12C/	4ee-\ 4gg\ 4eee-\
12G/	.
12e-/J	.
12d/L	4bn\ 4ff\ 4bbn\
12A-/	.
12C/	.
12E-/	4cc\ 4ee-\ 4ccc\
12GG/	.
12CC/J	.
=27	=27
12AAA-/L	4.cc\ 4.aa-\ 4.ccc\
12E-/	.
12A-/J	.
12A-\L	.
12e-\	.
.	8dd-X\ 8ddd-X\
12b-\J	.
12cc\L	8ee-\L 8eee-\
12e-\	.
.	8ff\ 8fff\
12d-X\	.
12c\	8ee-\ 8eee-\
12E-\	.
.	8ddn\J 8aa-\ 8dddn\
12Bn\J	.
=28	=28
12AA-\L	4ee-\ 4eee-\
12E-\	.
12c\	.
*	*8va
12A-\	4ccc\ 4eee-\ 4cccc\
12e-\	.
12cc\J	.
*	*X8va
12b-\L	4gg\ 4ddd-X\ 4ggg\
12d-X\	.
12A-\	.
12c\	4aa-\ 4ccc\ 4aaa-\
12E-X\	.
12AA-\J	.
!!LO:LB:g=original
=29	=29
12FF\L	4.aa-\ 4.ccc\ 4.aaa-\
12C\	.
12A-\	.
12F\	.
12c\	.
.	8gg\ 8ggg\
12a-\J	.
12a-\L	4ff\ 4fff\
12c\	.
12F\	.
12A-\	4ee-\ 4aa-\ 4eee-\
12C\	.
12FF\J	.
=30	=30
12EEE-\L	4ee-\ 4eee-\
12BBn\	.
12G\	.
12F\	2dd\ 2gg\ 2ddd\
12B-\	.
12g\J	.
12g\L	.
12B-\	.
12F\	.
12G\	4dd\ 4gg\ 4ddd\
12BB-X\	.
12FF\J	.
=31	=31
12EE-\L	4.gg\ 4.bbn\ 4.ggg\
12BBn\	.
12G\	.
12E-\	.
12Bn\	.
.	8ff\ 8fff\
12g\J	.
12g\L	4ee-\ 4eee-\
12B-X\	.
12E-\	.
12G\	4dd\ 4gg\ 4ddd\
12BB-X\	.
12EE-\J	.
=32	=32
12EEE-\L	4dd\ 4ddd\
12C\	.
12G\	.
12E-\	2cc\ 2gg\ 2ccc\
12c\	.
12g\J	.
12g\L	.
12c\	.
12E-\	.
12G\	4cc\ 4gg\ 4ccc\
12C\	.
12EE-\J	.
=33	=33
12DD\L	4.ff\ 4.aa-\ 4.fff\
12AA-\	.
12F\	.
12D\	.
12A-\	.
.	8ee-\ 8eee-\
12f\J	.
12f\L	4dd\ 4aa-\ 4ddd\
12A-\	.
12D\	.
12F\	4cc\ 4aa-\ 4ccc\
12AA-\	.
12DD\J	.
!!LO:PB:g=original
=34	=34
12DDD/L	4.ff#X\ 4.aa-\ 4.fff#X\
12AA-/	.
12F#X/	.
12D/	.
12A-/	.
.	8ee-\ 8aa-\ 8eee-\
12f#X/J	.
12f#/L	4dd\ 4aa-\ 4ddd\
12A-/	.
12D/	.
12F#/	4cc\ 4aa-\ 4ccc\
12AA-/	.
12DD/J	.
=35	=35
12GGG/L	1gg\ 1ccc\ 1ggg\
12GG/	.
12D/	.
12G/	.
12D/	.
12G/J	.
12d\L	.
12G\	.
12d\	.
12g\	.
12d\	.
12g\J	.
=36	=36
12d\L	1bn\ 1ff\ 1bbn\
12G\	.
12d\	.
12G\	.
12D\	.
12G\J	.
12D\L	.
12GG\	.
12D\	.
12GG\	.
12DD\	.
12GG\J	.
=37	=37
*	*Xtuplet
!LO:TX:t=P:problem=mixed beam	!
12CC/L	12cc\L 12ccc\
12C\ 12G\ 12c\	12e-\ 12cc\ 12ee-\
12C\ 12G\ 12c\	12e-\ 12cc\ 12ee-\
12C\ 12G\ 12c\	12e-\ 12cc\ 12ee-\
12C\ 12G\ 12c\	12e-\ 12cc\ 12ee-\
12C\J 12G\ 12d\	12f\J 12cc\ 12ff\
12C\L 12G\ 12e-\	12g\L 12cc\ 12gg\
12C\ 12G\ 12e-\	12g\ 12cc\ 12gg\
12C\ 12G\ 12f\	12a-\ 12cc\ 12aa-\
12C\ 12G\ 12e-\	12g\ 12cc\ 12gg\
12C\ 12G\ 12e-\	12g\ 12cc\ 12gg\
12C\J 12G\ 12d\	12f#X\J 12cc\ 12ff#X\
=38	=38
!LO:TX:t=P:problem=mixed beam	!
12CC/L	12g\L 12cc\ 12gg\
12C\ 12G\ 12e-\	12g\ 12cc\ 12gg\
12C\ 12G\ 12e-\	12g\ 12cc\ 12gg\
12C\ 12G\ 12e-\	12ee-\ 12gg\ 12eee-\
12C\ 12G\ 12e-\	12ee-\ 12gg\ 12eee-\
12C\J 12G\ 12e-\	12ee-\J 12gg\ 12eee-\
12C\L 12A-\ 12f\	12bn\L 12ff\ 12bbn\
12C\ 12A-\ 12f\	12b\ 12ff\ 12bb\
12C\ 12A-\ 12f\	12b\ 12ff\ 12bb\
12C\ 12G\ 12e-\	12cc\ 12ee-\ 12ccc\
12C\ 12G\ 12e-\	12cc\ 12ee-\ 12ccc\
12C\J 12G\ 12e-\	12cc\J 12ee-\ 12ccc\
!!LO:LB:g=original
=39	=39
!LO:TX:t=P:problem=mixed beam	!
12EE-/L	12r
12E-\ 12B-\ 12e-\	12g\L 12ee-\ 12gg\
12E-\ 12B-\ 12e-\	12g\ 12ee-\ 12gg\
12E-\ 12B-\ 12e-\	12g\ 12ee-\ 12gg\
12E-\ 12B-\ 12e-\	12g\ 12ee-\ 12gg\
12E-\J 12B-\ 12f\	12a-\J 12ee-\ 12aa-\
12E-\L 12B-\ 12g\	12b-\L 12ee-\ 12bb-\
12E-\ 12B-\ 12g\	12b-\ 12ee-\ 12bb-\
12E-\ 12B-\ 12a-\	12cc\ 12ee-\ 12ccc\
12E-\ 12B-\ 12g\	12b-\ 12ee-\ 12bb-\
12E-\ 12B-\ 12g\	12b-\ 12ee-\ 12bb-\
12E-\J 12B-\ 12f#X\	12an\J 12ee-\ 12aan\
=40	=40
!LO:TX:t=P:problem=mixed beam	!
12EE-/L	12b-\L 12ee-\ 12bb-\
12E-\ 12B-\ 12g\	12b-\ 12ee-\ 12bb-\
12E-\ 12B-\ 12g\	12b-\ 12ee-\ 12bb-\
12E-\ 12B-\ 12g\	12gg\ 12eee-\ 12ggg\
12E-\ 12B-\ 12g\	12gg\ 12eee-\ 12ggg\
12E-\J 12B-\ 12g\	12gg\J 12eee-\ 12ggg\
12E-\L 12c-X\ 12a-\	12dd\L 12ccc-X\ 12ddd\
12E-\ 12c-\ 12a-\	12dd\ 12ccc-\ 12ddd\
12E-\ 12c-\ 12a-\	12dd\ 12ccc-\ 12ddd\
12E-\ 12B-\ 12g\	12ee-\ 12bb-\ 12eee-\
12E-\ 12B-\ 12g\	12ee-\ 12bb-\ 12eee-\
12E-\J 12B-\ 12g\	12ee-\J 12bb-\ 12eee-\
=41	=41
!LO:TX:t=P:problem=mixed beam	!
12GG/L	12r
12G\ 12d\ 12g\	12b-\L 12gg\ 12bb-\
12G\ 12d\ 12g\	12b-\ 12gg\ 12bb-\
12G\ 12d\ 12g\	12b-\ 12gg\ 12bb-\
12G\ 12d\ 12g\	12b-\ 12gg\ 12bb-\
12G\J 12d\ 12an\	12cc\J 12gg\ 12ccc\
12G\L 12d\ 12b-\	12dd\L 12gg\ 12ddd\
12G\ 12d\ 12b-\	12dd\ 12gg\ 12ddd\
12G\ 12d\ 12b-\	12bb-\ 12ddd\ 12bbb-\
12G\ 12e-\ 12cc\	12ff#X\ 12eee-\ 12fff#X\
12G\ 12e-\ 12cc\	12ff#\ 12eee-\ 12fff#\
12G\J 12d\ 12b-\	12gg\J 12ddd\ 12ggg\
=42	=42
!LO:TX:t=P:problem=mixed beam	!
12GG/L	12r
12G\ 12d\ 12g\	12b-\L 12gg\ 12bb-\
12G\ 12d\ 12g\	12b-\ 12gg\ 12bb-\
12G\ 12d\ 12g\	12b-\ 12gg\ 12bb-\
12G\ 12d\ 12g\	12b-\ 12gg\ 12bb-\
12G\J 12d\ 12an\	12cc\J 12gg\ 12ccc\
12G\L 12d\ 12b-\	12dd\L 12gg\ 12ddd\
12G\ 12d\ 12b-\	12dd\ 12gg\ 12ddd\
12G\ 12d\ 12b-\	12bb-\ 12ddd\ 12bbb-\
12G\ 12e-\ 12cc\	12ff#X\ 12eee-\ 12fff#X\
12G\ 12e-\ 12cc\	12ff#\ 12eee-\ 12fff#\
12G\J 12d\ 12b-\	12gg\J 12ddd\ 12ggg\
!!LO:LB:g=original
=43	=43
!LO:TX:t=P:problem=mixed beam	!
12EEn/L	12gg\L 12bb-\ 12ggg\
12G\ 12B-\ 12d\ 12b-\	12gg\ 12bb-\ 12ggg\
12G\ 12B-\ 12d\ 12b-\	12gg\ 12bb-\ 12ggg\
12G\ 12B-\ 12d\ 12b-\	12gg\ 12bb-\ 12ggg\
12G\ 12B-\ 12d\ 12b-\	12gg\ 12bb-\ 12ggg\
12G\J 12B-\ 12d\ 12b-\	12ff\J 12bb-\ 12fff\
12G\L 12B-\ 12d\ 12b-\	12een\L 12bb-\ 12eeen\
12G\ 12B-\ 12d\ 12b-\	12ee\ 12bb-\ 12eee\
12G\ 12B-\ 12d\ 12b-\	12ee\ 12bb-\ 12eee\
12G\ 12B-\ 12d\ 12b-\	12dd\ 12bb-\ 12ddd\
12G\ 12B-\ 12d\ 12b-\	12dd\ 12bb-\ 12ddd\
12G\J 12B-\ 12d\ 12b-\	12dd\J 12bb-\ 12ddd\
=44	=44
!LO:TX:t=P:problem=mixed beam	!
12AAAn/L 12AAn/	12dd\L 12bb-\ 12ddd\
12G\ 12B-\ 12d\ 12b-\	12dd\ 12bb-\ 12ddd\
12G\ 12B-\ 12d\ 12b-\	12dd\ 12bb-\ 12ddd\
12G\ 12An\ 12c#X\ 12an\	12cc#X\ 12aa-\ 12ccc#X\
12G\ 12A\ 12c#\ 12a\	12cc#\ 12aa-\ 12ccc#\
12G\J 12A\ 12c#\ 12a\	12cc#\J 12aa-\ 12ccc#\
12G\L 12A\ 12c#\ 12a\	12cc#\L 12aa-\ 12ccc#\
12G\ 12A\ 12c#\ 12a\	12cc#\ 12aa-\ 12ccc#\
12G\ 12A\ 12c#\ 12a\	12cc#\ 12aa-\ 12ccc#\
12G\ 12A\ 12c#\ 12a\	12cc#\ 12aa-\ 12ccc#\
12G\ 12A\ 12c#\ 12a\	12cc#\ 12aa-\ 12ccc#\
12G\J 12A\ 12c#\ 12a\	12cc#\J 12aa-\ 12ccc#\
=45	=45
!LO:TX:t=P:problem=mixed beam	!
12DD/L	12ffn\L 12aa-X\ 12fffn\
12Fn\ 12A-X\ 12c\ 12a-X\	12ff\ 12aa-\ 12fff\
12F\ 12A-\ 12c\ 12a-\	12ff\ 12aa-\ 12fff\
12F\ 12A-\ 12c\ 12a-\	12ff\ 12aa-\ 12fff\
12F\ 12A-\ 12c\ 12a-\	12ff\ 12aa-\ 12fff\
12F\J 12A-\ 12c\ 12a-\	12ee-\J 12aa-\ 12eee-\
12F\L 12A-\ 12c\ 12a-\	12dd\L 12aa-\ 12ddd\
12F\ 12A-\ 12c\ 12a-\	12dd\ 12aa-\ 12ddd\
12F\ 12A-\ 12c\ 12a-\	12dd\ 12aa-\ 12ddd\
12F\ 12A-\ 12c\ 12a-\	12cc\ 12aa-\ 12ccc\
12F\ 12A-\ 12c\ 12a-\	12cc\ 12aa-\ 12ccc\
12F\J 12A-\ 12c\ 12a-\	12cc\J 12aa-\ 12ccc\
=46	=46
!LO:TX:t=P:problem=mixed beam	!
12GGG/L 12GG/	12cc\L 12aa-\ 12ccc\
12Fn\ 12A-X\ 12cn\ 12a-X\	12cc\ 12aa-\ 12ccc\
12F\ 12A-\ 12c\ 12a-\	12cc\ 12aa-\ 12ccc\
12F\ 12G\ 12Bn\ 12g\	12cc\ 12aa-\ 12ccc\
12F\ 12G\ 12B\ 12g\	12bn\ 12gg\ 12bbn\
12F\J 12G\ 12B\ 12g\	12b\J 12gg\ 12bb\
12F\L 12G\ 12B\ 12g\	12b\L 12gg\ 12bb\
12F\ 12G\ 12B\ 12g\	12b\ 12gg\ 12bb\
12F\ 12G\ 12B\ 12g\	12b\ 12gg\ 12bb\
12F\ 12G\ 12B\ 12g\	12b\ 12gg\ 12bb\
12F\ 12G\ 12B\ 12g\	12b\ 12gg\ 12bb\
12F\J 12G\ 12B\ 12g\	12b\J 12gg\ 12bb\
!!LO:LB:g=original
=47	=47
!LO:TX:t=P:problem=mixed beam	!
12EEE-/L 12EE-/	12cc\L 12gg\ 12ccc\
12E-\ 12G\ 12c\ 12g\	12cc\ 12gg\ 12ccc\
12E-\ 12G\ 12c\ 12g\	12ee-\ 12gg\ 12eee-\
12E-\ 12G\ 12c\ 12g\	12dd\ 12gg\ 12ddd\
12E-\ 12G\ 12c\ 12g\	12dd\ 12gg\ 12ddd\
12E-\J 12G\ 12c\ 12g\	12ee-\J 12gg\ 12eee-\
12E-\L 12G\ 12c\ 12g\	12ff\L 12gg\ 12fff\
12E-\ 12G\ 12c\ 12g\	12ff\ 12gg\ 12fff\
12E-\ 12G\ 12c\ 12g\	12ee-\ 12gg\ 12eee-\
12E-\ 12G\ 12c\ 12g\	12dd\ 12gg\ 12ddd\
12E-\ 12G\ 12c\ 12g\	12dd\ 12gg\ 12ddd\
12E-\J 12G\ 12c\ 12g\	12cc\J 12gg\ 12ccc\
=48	=48
!LO:TX:t=P:problem=mixed beam	!
12FFF/L 12FF/	12cc\L 12aa-\ 12ccc\
12F\ 12d\ 12a-\	12cc\ 12aa-\ 12ccc\
12F/ 12d/ 12a-/	12cc\ 12aa-\ 12ccc\
12F\ 12d\	12c\ 12a-\ 12cc\
12F\ 12d\	12c\ 12a-\ 12cc\
12F\J 12d\	12c\J 12a-\ 12cc\
12F\L 12d\ 12a-\	12cc\L 12aa-\ 12ccc\
12F\ 12d\ 12a-\	12cc\ 12aa-\ 12ccc\
12F\ 12d\ 12a-\	12cc\ 12aa-\ 12ccc\
12F\ 12d\ 12a-\	12cc\ 12aa-\ 12ccc\
12F\ 12d\ 12a-\	12cc\ 12aa-\ 12ccc\
12F\J 12d\ 12a-\	12cc\J 12aa-\ 12ccc\
=49	=49
!LO:TX:t=P:problem=mixed beam	!
12GGG/L 12GG/	12cc\L 12gg\ 12ccc\
12G\ 12c\ 12e-\ 12g\	12cc\ 12gg\ 12ccc\
12G\ 12c\ 12e-\ 12g\	12ee-\ 12gg\ 12eee-\
12G\ 12c\ 12e-\ 12g\	12dd\ 12gg\ 12ddd\
12G\ 12c\ 12e-\ 12g\	12dd\ 12gg\ 12ddd\
12G\J 12c\ 12e-\ 12g\	12ee-\J 12gg\ 12eee-\
12G\L 12c\ 12e-\ 12g\	12ff\L 12gg\ 12fff\
12G\ 12c\ 12e-\ 12g\	12ff\ 12gg\ 12fff\
12G\ 12c\ 12e-\ 12g\	12ee-\ 12gg\ 12eee-\
12G\ 12c\ 12e-\ 12g\	12dd\ 12gg\ 12ddd\
12G\ 12c\ 12e-\ 12g\	12dd\ 12gg\ 12ddd\
12G\J 12c\ 12e-\ 12g\	12cc\J 12gg\ 12ccc\
=50	=50
!LO:TX:t=P:problem=mixed beam	!
12AAA-/L 12AA-/	12cc\L 12ee-\ 12ccc\
12A-\ 12e-\ 12a-\	12cc\ 12ee-\ 12ccc\
12A-\ 12e-\ 12a-\	12cc\ 12ee-\ 12ccc\
12A-\ 12e-\	12c\ 12a-\ 12cc\
12A-\ 12e-\	12c\ 12a-\ 12cc\
12A-\J 12e-\	12c\J 12a-\ 12cc\
12A-\L 12e-\ 12a-\	12cc\L 12aa-\ 12ccc\
12A-\ 12e-\ 12a-\	12cc\ 12aa-\ 12ccc\
12A-\ 12e-\ 12a-\	12cc\ 12aa-\ 12ccc\
12A-\ 12e-\ 12a-\	12cc\ 12aa-\ 12ccc\
12A-\ 12e-\ 12a-\	12cc\ 12aa-\ 12ccc\
12A-\J 12e-\ 12a-\	12cc\J 12aa-\ 12ccc\
!!LO:LB:g=original
=51	=51
!LO:TX:t=P:problem=mixed beam	!
12AAAn/L 12AAn/	12cc\L 12ff#X\ 12ccc\
12An\ 12c\ 12f#X\	12cc\ 12ff#\ 12ccc\
12A/ 12c/ 12f#/	12ee-\ 12ff#\ 12eee-\
12A\ 12c\ 12f#\	12dd\ 12ff#\ 12ddd\
12A\ 12c\ 12f#\	12dd\ 12ff#\ 12ddd\
12A\J 12c\ 12f#\	12ee-\J 12ff#\ 12eee-\
12A\L 12c\ 12f#\	12ff#\L 12fff#X\
12A\ 12c\ 12f#\	12ff#\ 12fff#\
12A\ 12c\ 12f#\	12ee-\ 12ff#\ 12eee-\
12A\ 12d\ 12f#\	12dd\ 12ff#\ 12ddd\
12A\ 12d\ 12f#\	12dd\ 12ff#\ 12ddd\
12A\J 12e-\ 12f#\	12cc\J 12ff#\ 12ccc\
=52	=52
!LO:TX:t=P:problem=mixed beam	!
12CC/L 12C/	12ee-\L 12ff\ 12eee-\
12c\ 12e-\ 12an\	12ee-\ 12ff\ 12eee-\
12c\ 12e-\ 12a\	12ff#X\ 12aa-\ 12fff#X\
12c\ 12e-\ 12a\	12ffn\ 12aa-\ 12fffn\
12c\ 12e-\ 12a\	12ff\ 12aa-\ 12fff\
12c\J 12e-\ 12a\	12ff#X\J 12aa-\ 12fff#X\
12c\L 12e-\ 12a\	12aan\L 12aaan\
12c\ 12e-\ 12a\	12aa\ 12aaa\
12c\ 12e-\ 12a\	12ff#\ 12aa\ 12fff#\
12c\ 12f\ 12a\	12ffn\ 12aa\ 12fffn\
12c\ 12f\ 12a\	12ff\ 12aa\ 12fff\
12c\J 12f#X\ 12a\	12ee-\J 12aa\ 12eee-\
=53	=53
*	*8va
12EE-/L 12E-/	12ccc\L 12eee-\ 12cccc\
*clefG2	*
12e-/ 12f#X/ 12cc/	12ccc\ 12eee-\ 12cccc\
12e-/ 12f#/ 12cc/	12aan\ 12eee-\ 12aaan\
12e-/ 12g/ 12cc/	12gg\ 12eee-\ 12ggg\
12e-/ 12g/ 12cc/	12gg\ 12eee-\ 12ggg\
12e-/J 12an/ 12cc/	12ff#X\J 12eee-\ 12fff#X\
*clefF4	*
12FF#X/L 12F#X/	12eee-\L 12fff#\ 12eeee-\
*clefG2	*
12f#X/ 12a/ 12ee-/	12eee-\ 12fff#\ 12eeee-\
12f#/ 12a/ 12ee-/	12ccc\ 12eee-\ 12cccc\
12f#/ 12b-/ 12ee-/	12bb-\ 12eee-\ 12bbb-\
12f#/ 12b-/ 12ee-/	12bb-\ 12eee-\ 12bbb-\
12f#/J 12cc/ 12ee-/	12aa\J 12eee-\ 12aaa\
*clefF4	*
=54	=54
12AAn\L 12An\	12fff#X\L 12aaan\ 12ffff#X\
*clefG2	*
12an\ 12cc\ 12ff#X\	12fff#\ 12aaa\ 12ffff#\
12a\ 12cc\ 12ff#\	12eee-\ 12fff#\ 12eeee-\
12a\ 12dd\ 12ff#\	12ddd\ 12fff#\ 12dddd\
12a\ 12dd\ 12ff#\	12ddd\ 12fff#\ 12dddd\
12a\J 12ee-\ 12ff#\	12ccc\J 12fff#\ 12cccc\
!!LO:LB:g=original
12aan\	12aaa\ 12aaaan\
*	*X8va
6r	6r
12r	12r
6r;	6r;
=55	=55
*	*8va
32fff#X\LLL	32cccc\LLL 32aaaan\
32eee-X\	32aaan\ 32ffff#X\
32ddd\	32aaa-X\ 32ffffn\
32fffn\	32bbbn\ 32aaaa-X\
32eeen\	32bbb-X\ 32gggg\
32ccc#X\	32ggg\ 32eeeen\
32cccn\	32fff#X\ 32eeee-X\
32eee-X\	32aaan\ 32ffff#X\
32ddd\	32aaa-X\ 32ffffn\
32bbn\	32fffn\ 32dddd\
32bb-X\	32eee-\ 32cccc#X\
32ccc#X\	32ggg\ 32eeeen\
32cccn\	32fff#X\ 32eeee-X\
32aa-\	32eee-X\ 32cccc#\
32aa-X\	32ddd\ 32bbb-\
32bbn\	32fffn\ 32dddd\
32bb-X\	32eeen\ 32cccc#X\
32gg\	32ccc#X\ 32bbb-X\
32ff#X\	32cccn\ 32aaa-\
32aan\	32eee-X\ 32ccccn\
32aa-X\	32ddd\ 32bbbn\
32ffn\	32bbn\ 32aaa-X\
32een\	32bb-X\ 32ggg\
32gg\	32ccc#X\ 32bbb-X\
32ff#X\	32cccn\ 32aaan\
32ee-X\	32aan\ 32fff#X\
32dd\	32aa-X\ 32fffn\
32ffn\	32bbn\ 32aaa-X\
32een\	32bb-X\ 32ggg\
32cc#X\	32gg\ 32eeen\
32ccn\	32ff#X\ 32eee-X\
32ee-X\	32aan\JJJ 32fff#X\
*	*X8va
32dd\	32aa-X\LLL 32fffn\
32bn\	32ffn\ 32ddd\
32b-X\	32een\ 32ccc#X\
32cc#X\	32gg\ 32eeen\
32ccn\	32ff#X\ 32eee-X\
32an\	32ee-X\ 32cccn\
32a-X\	32dd\ 32bbn\
32bn\	32ffn\ 32ddd\
32b-X\	32een\ 32ccc#X\
32g\	32cc#X\ 32bb-X\
32f#X\	32ccn\ 32aan\
32an\	32ee-X\ 32cccn\
32a-X\	32dd\ 32bbn\
32fn\	32b-\ 32aa-X\
32en\	32b-X\ 32ggn\
32g\JJJ	32cc#X\JJJ 32bb-X\
!!LO:LB:g=original
32f#X/LLL	32ccn\LLL 32aan\
32e/	32an\ 32ff#X\
32d/	32a-X\ 32ffn\
32fn/	32b-\ 32aa-X\
32en/	32b-X\ 32gg\
32c#X/	32g\ 32een\
32cn/	32f#X\ 32ee-X\
32e-X/	32an\ 32ff#X\
32d/	32a-X\ 32ffn\
32Bn/	32fn\ 32dd\
32B-X/	32e-\ 32cc#X\
32c#X/	32g\ 32een\
32cn/	32f#X\ 32ee-X\
32An/	32e-X\ 32ccn\
32A-X/	32d\ 32bn\
32Bn/	32fn\ 32dd\
32c/	32f#X\ 32ee-\
32An/	32e-\ 32cc\
32A-X/	32d\ 32b\
32B/	32fn\ 32dd\
32c/	32f#X\ 32ee-\
32An/	32e-\ 32cc\
32A-X/	32d\ 32b\
32B/	32fn\ 32cc\
32A-/	32d\ 32b\
32B/	32f\ 32dd\
32A-/	32d\ 32b-X\
32B-X/	32f\ 32dd\
32A-/	32d\ 32b-\
32B-/	32f\ 32dd\
32A-/	32d\ 32b-\
32B-/JJJ	32f\JJJ 32dd\
=56	=56
2A-T/	8d\L 8b-\
.	8d\J 8b-\
.	8F\L 8d\
.	8d\J 8b-\
2A-T/	8F\L 8d\
.	8d\J 8b-\
.	8F#X\L 8d\
.	8d\J 8b-\
!!LO:PB:g=original
=57||	=57||
*clefF4	*clefF4
*k[b-e-a-]	*k[b-e-a-]
*M2/4	*M2/4
!	!LO:TX:rj:a:t=Al(l)egretto.
8E-\L	8.G\L
*clefG2	*
8e-\J 8b-\	.
.	16A-\Jk
8G/L 8e-/	16B-\LL
.	16c\
8e-/J 8b-/	16B-\
.	16An\JJ
=58	=58
8E-/L	16B-\LL
.	16c\
8e-/J 8b-/	16B-\
.	16An\JJ
8G/L 8e-/	8B-\L
8e-/J 8b-/	8B-\J
=59	=59
8E-/L	8e-\L
8e-/J 8b-/	8dm\
8G/L 8e-/	8.c\
8e-/J 8b-/	.
.	16B-\Jk
*clefF4	*
=60	=60
8BB-\L	8B-M\
*clefG2	*
8d\J 8b-\	4A-\
8F/L 8d/	.
8d/J 8b-/	8G\
*clefF4	*
=61	=61
8BB-\L	8.F\L
8d\J 8b-\	.
.	16G\Jk
8F\L 8d\	16A-\LL
.	16B-\
8d\J 8b-\	16A-\
.	16G\JJ
=62	=62
8BB-\L	16A-\LL
.	16B-\
8d\J 8b-\	16A-\
.	16G\JJ
8F\L 8d\	8A-\L
8d\J 8b-\	8A-\J
!!LO:LB:g=original
=63	=63
8BB-\L	8c\L
8d\ 8b-\	8cM\
8F\ 8d\	8.B-\
8d\J 8b-\	.
.	16A-\Jk
=64	=64
8E-\L	8A-\
8e-\J 8b-\	4G\
4G\ 4e-\ 4b-\	.
.	8G\
=65	=65
8E-\L	8.G\L
8e-\J 8b-\	.
.	16A-\Jk
8G\L 8e-\	16B-\LL
.	16c\
8e-\J 8b-\	16B-\
.	16An\JJ
=66	=66
8E-\L	16B-\LL
.	16c\
8e-\J 8b-\	16B-\
.	16An\JJ
8G\L 8e-\	8B-\L
8e-\J 8b-\	8B-\J
=67	=67
8E-\L	8.g\L
8e-\J 8b-\	.
.	16f\Jk
8G\L 8e-\	16e-\LL
.	16d\
8e-\J 8b-\	16c\
.	16B-\JJ
=68	=68
8BB-\L	8B-M\
8d\J 8b-\	4A-\
8F\L 8d\	.
8d\J 8b-\	8G\
=69	=69
8BB-\L	8.F\L
8d\J 8b-\	.
.	16G\Jk
8F\L 8d\	16A-\LL
.	16B-\
8d\J 8b-\	16A-\
.	16G\JJ
!!LO:LB:g=original
=70	=70
8BB-\L	16A-\LL
.	16B-\
8d\J 8b-\	16A-\
.	16G\JJ
8F\L 8d\	8A-\L
8d\J 8b-\	8A-\J
=71	=71
8BB-\L	8.f\L
8d\J 8b-\	.
.	16e-\Jk
8F\L 8d\	16d\LL
.	16c\
8d\J 8b-\	16B-\
.	16A-\JJ
=72	=72
8E-\L	8A-M\
8e-\J 8b-\	4G\
4G\ 4e-\ 4b-\	.
.	8B-\
*clefG2	*
=73||	=73||
!LO:TX:t=P:problem=mixed beam	!
8A-/L	8e-\L
8a-\J 8ee-\	16d\L
.	16e-\
8c/L 8a-/	16f\
.	16e-\
8a-/J 8ee-/	16d\
.	16c\JJ
*clefF4	*
=74	=74
8BB-\L	8B-M\
8e-\ 8b-\	4G\
8G\ 8e-\	.
8e-\J 8b-\	8G\
=75	=75
8BB-\L	8B-\L
8d\J 8b-\	8B-M\
8F\L 8d\	8.A-\
8d\J 8b-\	.
.	16F\Jk
=76	=76
!LO:TX:t=P:problem=mixed beam	!
8EE-/L	16E-\LL
.	16G\JJ
8e-\J 8b-\	4B-\
8G\L 8e-\	.
8e-\J 8b-\	8B-\
!!LO:LB:g=original
=77	=77
8AA-\L	8e-\L
*clefG2	*
8a-\J 8ee-\	16d\L
.	16e-\JJ
8c\L 8a-\	16f\LL
.	16e-\
8a-\J 8ee-\	16d\
.	16c\JJ
*clefF4	*
=78	=78
8BB-\L	16An\LL
.	16B-\
*clefG2	*
8g\J 8ee-\	16g\
.	16f\JJ
8B-/L 8g/	16e-\LL
.	16d\
8g/J 8ee-/	16c\
.	16B-\JJ
*clefF4	*
=79	=79
8BB-\L	16An\LL
.	16B-\
8d\J 8b-\	16c\
.	16B-\JJ
8F\L 8d\	8.A-X\L
8d\J 8b-\	.
.	16F\Jk
=80	=80
!LO:TX:t=P:problem=mixed beam	!
8EE-/L 8E-/	8E-\
8G\J 8e-\	8r
*	*clefG2
4r	8e-\L 8b-\ 8ee-\
.	8ee-\J 8bb-\ 8eee-\
=81	=81
!LO:TX:t=P:problem=mixed beam	!
8AAA-/L 8AA-/	8ee-\L 8eee-\
16c\L 16a-\	16dd\L 16ddd\
16c\JJ 16a-\	16ee-\JJ 16eee-\
8E-\L 8c\	16ff\LL 16fff\
.	16ee-\ 16eee-\
8c\J 8a-\	16dd\ 16ddd\
.	16cc\JJ 16ccc\
=82	=82
!LO:TX:t=P:problem=mixed beam	!
8BBB-/L 8BB-/	8b-\ 8bb-\
16G\L 16e-\	4g\ 4gg\
16G\JJ 16e-\	.
8BB-\L 8G\	.
8G\J 8e-\	8g\ 8gg\
!!LO:LB:g=original
=83	=83
!LO:TX:t=P:problem=mixed beam	!
8BBB-/L 8BB-/	8b-\L 8bb-\
8A-\J 8d\	8b-M\ 8bb-\
8BB-\L 8A-\	8.a-\ 8.aa-\
8A-\J 8d\	.
.	16f\Jk 16ff\
=84	=84
8EE-\L 8E-\	16e-\LL 16ee-\
.	16g\JJ 16gg\
8G\J 8e-\	4b-\ 4bb-\
8BB-\L 8G\	.
8G\J 8e-\	8b-\ 8bb-\
=85	=85
!LO:TX:t=P:problem=mixed beam	!
8AAA-/L 8AA-/	8ee-\L 8eee-\
16c\L 16a-\	16dd\L 16ddd\
16c\JJ 16a-\	16ee-\JJ 16eee-\
8E-\L 8c\	16ff\LL 16fff\
.	16ee-\ 16eee-\
8c\J 8a-\	16dd\ 16ddd\
.	16cc\JJ 16ccc\
=86	=86
!LO:TX:t=P:problem=mixed beam	!
8BBB-/L 8BB-/	16an\LL 16aan\
.	16b-\ 16bb-\
16G\L 16e-\	16gg\ 16ggg\
16G\JJ 16e-\	16ff\ 16fff\
8BB-\L 8G\	16ee-\ 16eee-\
.	16dd\ 16ddd\
8G\J 8e-\	16cc\ 16ccc\
.	16b-\JJ 16bb-\
=87	=87
!LO:TX:t=P:problem=mixed beam	!
8BBB-/L 8BB-/	16an\LL 16aan\
.	16b-\ 16bb-\
8A-\J 8d\	16cc\ 16ccc\
.	16b-\JJ 16bb-\
8BB-\L 8A-\	8.a-X\L 8.aa-X\
8A-\J 8d\	.
.	16f\Jk 16ff\
=88	=88
8EE-\L 8E-\	4e-\ 4ee-\
8E-\J 8G\	.
*	*8va
8G\ 8e-\ 8b-\	8eee-\ 8bbb-\ 8eeee-\
*	*X8va
8r	8r
!	!LO:TX:a:t=[segno]
=89||:	=89||:
*>C	*
*clefF4	*
*clefG2	*
8.E-/L 8.B-/ 8.e-/ 8.g/	32ee-\LLL
.	32gg\
.	32bb-\
.	32eee-\JJJ
.	32ggg\LLL
.	32eee-\
16a-/Jk	32bb-\
.	32gg\JJJ
16b-/LL	32ee-\LLL
.	32gg\
16cc/	32bb-\
.	32eee-\JJJ
16b-/	32ggg\LLL
.	32eee-\
16an\JJ	32bb-\
.	32gg\JJJ
=90	=90
16e-/LL 16g/ 16b-/	32ee-\LLL
.	32gg\
16cc/	32bb-\
.	32eee-\JJJ
16b-/	32ggg\LLL
.	32eee-\
16an/JJ	32bb-\
.	32gg\JJJ
8b-/L	32ee-\LLL
.	32gg\
.	32bb-\
.	32eee-\JJJ
8e-/J 8g/ 8b-/	32ggg\LLL
.	32eee-\
.	32bb-\
.	32gg\JJJ
=91	=91
*	*^
!LO:TX:t=P:problem=mixed beam	!	!
8E-/L 8B-/ 8g/	8ee-/	32ee-\LLL
.	.	32gg\
.	.	32bb-\
.	.	32eee-\JJJ
8dd\J	8ryy	32ggg\LLL
.	.	32eee-\
.	.	32bb-\
.	.	32gg\JJJ
8E-/L 8B-/ 8g/	8cc/	32cc\LLL
.	.	32gg\
.	.	32bb-\
.	.	32eee-\JJJ
8b-/J	8ryy	32ggg\LLL
.	.	32eee-\
.	.	32bb-\
.	.	32gg\JJJ
*clefF4	*	*
=92	=92	=92
8BB-\ 8F\ 8d\	8b-/	32b-\LLL
.	.	32ff\
.	.	32bb-\
.	.	32ddd\JJJ
4a-\	8ryy	32fff\LLL
.	.	32ddd\
.	.	32bb-\
.	.	32ff\JJJ
.	4ryy	32dd\LLL
.	.	32ff\
.	.	32bb-\
.	.	32ddd\JJJ
8g\	.	32bbb-\LLL
.	.	32ddd\
.	.	32bb-\
.	.	32ff\JJJ
*	*v	*v
=93	=93
8.BB-\L 8.A-\ 8.d\ 8.f\	32dd\LLL
.	32ff\
.	32bb-\
.	32ddd\
.	32bbb-\
.	32ddd\
16g\Jk	32bb-\
.	32ff\JJJ
16a-\LL	32dd\LLL
.	32ff\
16b-\	32bb-\
.	32ddd\
16a-\	32bbb-\
.	32ddd\
16g\JJ	32bb-\
.	32ff\JJJ
!!LO:LB:g=original
=94	=94
16B-\LL 16d\ 16cc\	32dd\LLL
.	32ff\
16b-\	32bb-\
.	32ddd\JJJ
16a-\	32bbb-\LLL
.	32ddd\
16g\JJ	32bb-\
.	32ff\JJJ
8a-\L	32dd\LLL
.	32ff\
.	32bb-\
.	32ddd\JJJ
8B-\J 8d\ 8a-\	32bbb-\LLL
.	32ddd\
.	32bb-\
.	32ff\JJJ
=95	=95
*	*^
8BB-\L 8A-\ 8d\	8cc/	32cc\LLL
.	.	32ff\
.	.	32bb-\
.	.	32ddd\JJJ
8cc\J	8ryy	32bbb-\LLL
.	.	32ddd\
.	.	32bb-\
.	.	32ff\JJJ
8BB-\L 8F\ 8d\	8b-/	32b-\LLL
.	.	32ff\
.	.	32bb-\
.	.	32ddd\JJJ
8a-\J	8ryy	32bbb-\LLL
.	.	32ddd\
.	.	32bb-\
.	.	32ff\JJJ
=96	=96	=96
!LO:TX:t=I volta	!	!
8E-\ 8B-\	8a-/	32a-\LLL
.	.	32ee-\
.	.	32bb-\
.	.	32eee-\JJJ
4g\	8ryy	32bbb-\LLL
.	.	32eee-\
.	.	32bb-\
.	.	32gg\JJJ
.	4ryy	32ee-\LLL
.	.	32gg\
.	.	32bb-\
.	.	32eee-\JJJ
8g\	.	32bbb-\LLL
.	.	32eee-\
.	.	32bb-\
.	.	32gg\JJJ
*	*v	*v
=97:|!|:	=97:|!|:
*>D	*
!LO:TX:t=IIvolta	!
8E-\ 8B-\	32a-\LLL
.	32ee-\
.	32bb-\
.	32eee-\JJJ
4.g\	32bbb-\LLL
.	32eee-\
.	32bb-\
.	32gg\JJJ
.	32eee-\LLL
.	32bb-\
.	32ee-\
.	32b-\JJJ
.	32bb-\LLL
.	32ee-\
.	32b-\
.	32e-\JJJ
=98	=98
8AA-\L 8E-\ 8A-\ 8c\	32cc/LLL 32ee-/
.	32c/
.	32a-/
.	32cc/JJJ
*clefG2	*
16bn\L 16dd\	32ee-\LLL
.	32a-\
16cc\JJ 16ee-\	32aa-\
.	32ccc\JJJ
16dd\LL 16ff\	32eee-\LLL
.	32ccc\
*	*8va
16cc\ 16ee-\	32aaa-\
.	32cccc\JJJ
16b-X\ 16dd\	32eeee-\
*	*X8va
.	32r
16a-\JJ 16cc\	16r
*clefF4	*
!!LO:PB:g=original
=99	=99
8EE-/ 8E-/	16e-\LL 16g\ 16b-\
*	*8va
.	16bbb-\ 16eeee-\
4G\ 4e-\ 4g\	16eee-\ 16bbb-\
*	*X8va
.	16bb-\JJ 16eee-\
.	16ee-\LL 16bb-\
.	16b-\ 16ee-\
8G\ 8e-\ 8g\	16e-\ 16b-\
.	16B-\JJ 16e-\
=100	=100
8BBB-/ 8BB-/	16B-/LL
.	16d/JJ 16a-/ 16b-/
*clefG2	*
16B-/LL 16d/ 16a-/ 16cc/	16r
16b-/JJ	16dd\LL 16aa-\ 16bb-\
!LO:TX:t=P:problem=mixed beam	!
8B-/L 8d/ 8a-/	16dd\ 16aa-\ 16bb-\
.	16ddd\JJ 16aaa-\ 16bbb-\
*clefF4	*
8BB-\J 8A-\ 8d\	8ddd\ 8aaa-\ 8bbb-\
=101	=101
8EE-/ 8BB-/ 8E-/	16G/LL 16e-/
.	16e-/JJ 16g/
4B-\ 4e-\ 4g\ 4b-\	16r
.	16ee-\LL 16gg\ 16bb-\
.	16ee-\ 16gg\ 16bb-\
.	16eee-\JJ 16ggg\ 16bbb-\
8B-\ 8e-\ 8g\ 8b-\	8eee-\ 8ggg\ 8bbb-\
=102	=102
8AA-\L 8E-\ 8A-\ 8c\	32cc\LLL 32ee-\
.	32c\
.	32a-\
.	32cc\
*clefG2	*
16bn\L 16dd\	32ee-\
.	32cc\
16cc\JJ 16ee-\	32aa-\
.	32ccc\
16dd\LL 16ff\	32eee-\
.	32ccc\
*	*8va
16cc\ 16ee-\	32aaa-\
.	32cccc\JJJ
16b-X\ 16dd\	8eeee-\
16a-\JJ 16cc\	.
*	*X8va
*clefF4	*
=103	=103
8BBB-/ 8BB-/	16e-/LL 16f#X/ 16an/
.	16g/JJ 16b-/
*clefG2	*
*	*8va
4.B-/ 4.g/ 4.ee-/	64eeee-\LLLL 64gggg\
.	64dddd\ 64ffff\
.	64cccc\ 64eeee-\
.	64bbb-\ 64dddd\
.	64aaa-\ 64cccc\
.	64ggg\ 64bbb-\
*	*X8va
.	64fff\ 64aaa-\
.	64eee-\ 64ggg\
.	64ddd\ 64fff\
.	64ccc\JJJJ 64eee-\
!!LO:LB:g=original
.	64bb-\LLLL 64ddd\
.	64aa-\ 64ccc\
.	64gg\ 64bb-\
.	64ff\ 64aa-\
.	64ee-\ 64gg\
.	64dd\ 64ff\
.	64cc\ 64ee-\
.	64b-\ 64dd\
.	64a\ 64cc\
.	64g\JJJJ 64b-\
.	16ryy
*clefF4	*
=104	=104
8BBB-/L 8BB-/	16f#X/LL 16an/
.	16g/JJ 16b-/
*clefG2	*
16B-/L 16d/ 16a-/ 16cc/	16r
16b-/JJ	16dd\LL 16aa-\ 16bb-\
8B-/ 8d/ 8a-/	16dd\ 16aa-\ 16bb-\
*	*8va
.	16ddd\JJ 16aaa-\ 16bbb-\
*clefF4	*
8BB-\ 8A-\ 8d\	8ddd\ 8aaa-\ 8bbb-\
*	*X8va
=105	=105
8EE-/ 8BB-/ 8E-/	16G/LL 16e-/
.	16e-/JJ 16g/
*clefG2	*
4.e-/ 4.g/ 4.ee-/	16r
.	16gg\ 16eee-\
*	*8va
.	16ggg\ 16eeee-\
*	*X8va
.	16r
.	8r
!!LO:LB:g=original
=106:|!|:	=106:|!|:
*>E	*
*clefF4	*
!LO:TX:t=P:problem=mixed beam	!LO:TX:a:t=Pizzicato.
16EE-/LL	16ee-\LL 16gg\
16G\	16e-\
16B-/	16f\
16BB-\JJ	16ff\JJ 16aa-\
!LO:TX:t=P:problem=mixed beam	!
16EE-/LL	16gg\LL 16bb-\
16c\	16a-\ 16ccc\
16e-\	16g\ 16bb-\
16E-\JJ	16ff#X\JJ 16aan\
=107	=107
!LO:TX:t=P:problem=mixed beam	!
16EE-/LL	16gg\LL 16bb-\
16c\	16a-\ 16ccc\
16e-\	16g\ 16bb-\
16E-\JJ	16ff#X\JJ 16aan\
!LO:TX:t=P:problem=mixed beam	!
16EE-/LL	16gg\LL 16bb-\
16G/	16e-\
16B-\	16g\ 16bb-\
16BB-/JJ	16ee-\JJ
=108	=108
!LO:TX:t=P:problem=mixed beam	!
16CC/LL	16gg\LL 16eee-\
16E-\	16g\
16G\	16b-\ 16ddd\
16GG/JJ	16bb-\JJ
!LO:TX:t=P:problem=mixed beam	!
16AA-/LL	16ccc\LL 16eee-\
16c\	16a-\
16e-\	16g\ 16bb-\
16E-/JJ	16gg\JJ
=109	=109
16BBB-/LL	16dd\LL 16bb-\
16BB-/	16f\
16D/	16dd\ 16aa-\
16BBB-/JJ	16B-\JJ
16F/LL	16dd\LL
16BBB-/	16B-\
16G/	16ee-/ 16gg/
16BBB-/JJ	16B-\JJ
!!LO:LB:g=original
=110	=110
!LO:TX:t=P:problem=mixed beam	!
16BBB-/LL	16dd\LL 16ff\
16F\	16d\
16G/	16e-\
16GG/JJ	16ee-\JJ 16gg\
!LO:TX:t=P:problem=mixed beam	!
16BBB-/LL	16ff\LL 16aa-\
16B-\	16g\ 16bb-\
16d\	16f\ 16aa-\
16BB-/JJ	16een\JJ 16gg\
=111	=111
!LO:TX:t=P:problem=mixed beam	!
16BBB-/LL	16ff\LL 16aa-\
16B-\	16g\ 16bb-\
16d\	16f\ 16aa-\
16BB-/JJ	16een\JJ 16gg\
!LO:TX:t=P:problem=mixed beam	!
16BBB-/LL	16ff\LL 16aa-\
16F/	16d\
16B-\	16f\ 16aa-\
16BB-/JJ	16dd\JJ
=112	=112
!LO:TX:t=P:problem=mixed beam	!
16BBB-/LL	16aa-\LL 16ccc\
16D\	16a-\
16F\	16aa-\ 16ccc\
16DD/JJ	16d\JJ
16BB-\LL	16gg\LL 16bb-\
16B-\	16d\
16d\	16f\
16BB-\JJ	16ff\JJ 16aa-\
=113	=113
!LO:TX:t=P:problem=mixed beam	!
16EE-\LL	16ff\LL 16aa-\
16B-\	16e-\
16e-\	16ee-\ 16gg\
16EE-/JJ	16e-\JJ
!LO:TX:t=P:problem=mixed beam	!
16g\LL	16r
16EE-/JJ	16e-\LL
16e-\	16ee-\ 16gg\
16r	16e-\JJ
!!LO:LB:g=original
=114:|!|:	=114:|!|:
*>F	*
!LO:TX:t=P:problem=mixed beam	!
16AA-/LL	16ccc\LL 16eee-\
16c\	16a-\
16e-\	16bn\ 16ddd\
16E-\JJ	16bbn\JJ 16eee-\
!LO:TX:t=P:problem=mixed beam	!
16AA-\LL	16ccc\LL 16fff\
16e-\	16cc\ 16eee-\
16a-\	16b-X\ 16ddd\
16A-\JJ	16aa-\JJ 16ccc\
=115	=115
!LO:TX:t=P:problem=mixed beam	!
16BBB-/LL	16gg\LL 16bb-\
16G\	16g\
16B-\	16ee-\ 16gg\
16BB-/JJ	16e-\JJ
16e-\LL	16r
16BB-\	16e-\LL
16g\	16ee-\ 16gg\
16BB-\JJ	16e-\JJ
=116	=116
!LO:TX:t=P:problem=mixed beam	!
16BBB-/LL	16gg\LL 16bb-\
16B-\	16g\
16d\	16f#X\ 16aan\
16BB-/JJ	16ff#X\JJ
!LO:TX:t=P:problem=mixed beam	!
16BB-/LL	16ffn\LL 16aa\
16d\	16fn\
16a-\	16d\ 16ff\
16D/JJ	16b-\JJ
=117	=117
!LO:TX:t=P:problem=mixed beam	!
16EE-/LL	16e-\LL 16ee-\
16G\	16ee-\ 16gg\
16e-\	16ee-\ 16bb-\
16BB-/JJ	16e-\JJ 16b-\
*clefG2	*
!LO:TX:t=P:problem=mixed beam	!
(16gg\LL	(16eee-\LL 16bbb-\
16B-\JJ)	16ee-\JJ) 16bb-\
!LO:TX:t=P:problem=mixed beam	!
(16gg\LL	(16eee-\LL 16bbb-\
16B-/JJ)	16ee-\JJ) 16bb-\
*clefF4	*
!!LO:LB:g=original
=118	=118
16AA-\LL	16ccc\LL 16eee-\
16c\	16a-\
16e-\	16bn\ 16ddd\
16E-\JJ	16bbn\JJ 16eee-\
16AA-\LL	16ccc\LL 16fff\
16e-\	16cc\ 16eee-\
16a-\	16b-X\ 16ddd\
16A-\JJ	16aa-\JJ 16ccc\
=119	=119
!LO:TX:t=P:problem=mixed beam	!
16BBB-/LL	16ff#X\LL 16aan\
16G\	16g\ 16bb-\
16e-\	16ee-\ 16ggg\
16BB-\JJ	16bb-\JJ 16fffn\
16BB-\LL	16gg\LL 16eee-\
16e-\	16b-\ 16ddd\
16b-\	16ee-\ 16ccc\
16G\JJ	16gg\JJ 16bb-\
=120	=120
!LO:TX:t=P:problem=mixed beam	!LO:TX:t=P:problem=zapis poprawiany
16BBB-/LL	16aa-\LL 16aan\
16D\	16b-\ 16bb-\
16A-\	16aa-X\ 16ccc\
16d\JJ	16b-\JJ 16bb-\
16BB-\LL	8a-\L 8dd\ 8aa-\
16B-\JJ	.
*clefG2	*
8d/ 8a-/ 8dd/	16bb-\L
.	16bbb-\JJ
*clefF4	*
=121	=121
16EE-\LL	16g\LL 16ee-\
16G\	16e-\ 16g\
16B-\	16gg\ 16eee-\
16g\JJ	16ee-\JJ 16gg\
*clefG2	*
*	*8va
8ee-\	8eee-\ 8ggg\ 8eeee-\
*	*X8va
8r	8r
!!LO:LB:g=original
=122:|!	=122:|!
*>G	*
*^	*
*	*	*2\right
*	*	*8va
!	!	!LO:TX:a:t=Poco meno mosso.
8.gg/L 8.bb-/ 8.eee-/ 8.ggg/	4e-\ 4b-\ 4ee-\	2eeee-TT\
16fff/Jk 16aaa-/	.	.
16ggg\LL 16bbb-\	4ryy	.
16aaa-\ 16cccc\	.	.
16ggg\ 16bbb-\	.	.
16fff#X\JJ 16aaan\	.	.
*v	*v	*
=123	=123
16ggg\LL 16bbb-\	2eeee-TT\
16aaa-\ 16cccc\	.
16ggg\ 16bbb-\	.
16fff#X\JJ 16aaan\	.
8ggg\L 8bbb-\	.
8ggg\J 8bbb-\	.
=124	=124
*8va	*
*^	*
8ggg/L 8eeee-/	4ee-\ 4bb-\ 4eee-\	2eeee-TT\
8bbb-/J 8dddd/	.	.
8.aaa-/L 8.cccc/	4ryy	.
16ggg/Jk 16bbb-/	.	.
*v	*v	*
=125	=125
8b-\ 8aa-\ 8ddd\ 8ggg\	2bbb-TT\
4fff\ 4aaa-\	.
8eee-\ 8ggg\	.
=126	=126
8.b-\L 8.aa-\ 8.ddd\ 8.fff\	2bbb-TT\
16eeen\Jk 16ggg\	.
16fff\LL 16aaa-\	.
16ggg\ 16bbb-\	.
16fff\ 16aaa-\	.
16eee\JJ 16ggg\	.
=127	=127
16fff\LL 16aaa-\	2bbb-TT\
16ggg\ 16bbb-\	.
16fff\ 16aaa-\	.
16eeen\JJ 16ggg\	.
8fff\L 8aaa-\	.
8fff\J 8aaa-\	.
*X8va	*
!!LO:PB:g=original
=128	=128
*8va	*
8b-\L 8aa-\ 8ddd\ 8aaa-\	4ccccTT\
8aaa-\J	.
8ggg\L 8bbb-\	4ddddtt\
8fff\J 8aaa-\	.
=129	=129
8ee-\L 8bb-\ 8eee-\ 8aaa-\	2eeee-TT\
16eee-\L 16ggg\	.
16ddd\JJ	.
*X8va	*
16ee-\LL 16gg\	.
16b-\	.
16e-\ 16g\	.
16B-\JJ	.
*clefF4	*
=130||	=130||
*	*^
8E-\L 8B-\ 8g\	2eeee-TT\	8.eee-\L 8.ggg\
*clefG2	*	*
8b-\J 8gg\ 8bb-\	.	.
.	.	16fff\Jk 16aaa-\
4ee-\ 4gg\ 4eee-\	.	16ggg\LL 16bbb-\
.	.	16aaa-\ 16cccc\
.	.	16ggg\ 16bbb-\
.	.	16fff#X\JJ 16aaan\
*clefF4	*	*
=131	=131	=131
8E-\L 8B-\ 8g\	2eeee-TT/	16ggg\LL 16bbb-\
.	.	16aaa-\ 16cccc\
*clefG2	*	*
8b-\J 8gg\ 8bb-\	.	16ggg\ 16bbb-\
.	.	16fff#X\JJ 16aaan\
4ee-\ 4gg\ 4eee-\	.	8ggg\L 8bbb-\
.	.	8ggg\J 8bbb-\
*clefF4	*	*
=132	=132	=132
8E-\L 8B-\ 8g\	2eeee-TT/	8cccc\L 8eeee-\
*clefG2	*	*
8b-\J 8gg\ 8bb-\	.	8bbb-\ 8dddd\
!LO:TX:t=P:problem=mixed beam	!	!
8e-/L	.	8aaa-\ 8cccc\
8ee-\J 8gg\ 8eee-\	.	8ggg\J 8bbb-\
*clefF4	*	*
!!LO:LB:g=original
=133	=133	=133
8BB-/L	2bbb-TT\	8ggg\ 8bbb-\
*clefG2	*	*
8d/J 8a-/ 8dd/	.	4fff\ 4aaa-\
4a-/ 4dd/ 4aa-/	.	.
.	.	8eee-\ 8ggg\
*clefF4	*	*
=134	=134	=134
8BB-\L 8A-\ 8d\	2bbb-TT\	8.ddd\L 8.fff\
*clefG2	*	*
8a-\J 8dd\ 8aa-\	.	.
.	.	16eee-\Jk 16ggg\
4dd\ 4aa-\ 4ddd\	.	16fff\LL 16aaa-\
.	.	16ggg\ 16bbb-\
.	.	16fff\ 16aaa-\
.	.	16eeen\JJ 16ggg\
*clefF4	*	*
=135	=135	=135
8BB-\L 8A-\ 8d\	2bbb-TT\	16fff\LL 16aaa-\
.	.	16ggg\ 16bbb-\
*clefG2	*	*
8a-\J 8dd\ 8aa-\	.	16fff\ 16aaa-\
.	.	16eeen\JJ 16ggg\
4dd\ 4aa-\ 4ddd\	.	8fff\L 8aaa-\
.	.	8fff\J 8aaa-\
*clefF4	*	*
=136	=136	=136
8BB-\L 8A-\ 8d\	4ccccTT\	8aaa-\L 8cccc\
*clefG2	*	*
8a-\J 8dd\ 8aa-\	.	8aaa-\ 8cccc\
*clefF4	*	*
8B-\L	4ddddtt\	8ggg\ 8bbb-\
*clefG2	*	*
8dd\J 8aa-\ 8ddd\	.	8fff\J 8aaa-\
*clefF4	*	*
=137	=137	=137
8E-\L 8B-\ 8g\	2eeee-TT\	8fff\ 8aaa-\
*clefG2	*	*
8g\J 8ee-\ 8gg\	.	4.eee-\ 4.ggg\
4ee-\ 4gg\ 4eee-\	.	.
=138||	=138||	=138||
*^	*	*
8ccc/L 8eee-/	4A-\ 4e-\ 4cc\ 4ee-\	2eeee-TT/	8cccc\L
16bbn/L 16ddd/	.	.	16bbbn\L
16ccc/JJ 16eee-/	.	.	16cccc\JJ
16ddd/LL 16fff/	4ryy	.	16dddd\LL
16ccc/ 16eee-/	.	.	16cccc\
16bb-X/ 16ddd/	.	.	16bbb-X\
16aa-/JJ 16ccc/	.	.	16aaa-\JJ
*v	*v	*	*
!!LO:LB:g=original
=139	=139	=139
8gg\ 8bb-\	2bbb-TT/	8ggg\
!LO:TX:t=P:problem=dziwnie mixed beam	!	!
8g/L 8ee-/ 8gg/	.	4eee-\
8B-/	.	.
8g/J 8ee-/ 8gg/	.	8ggg\
=140	=140	=140
*^	*	*
8gg/L 8bb-/	4B-\ 4a-\ 4dd\	2bbb-TT/	8ggg\L
8ff#X/ 8aan/	.	.	8fff#X\
8ffn/ 8aa-X/	4b-/	.	8fffn\
8dd/J 8ff/	.	.	8ddd\J
=141	=141	=141	=141
16ee-/LL	4G\ 4B-\ 4g\ 4b-\	2bbb-TT/	16eee-\LL
16ee-/JJ 16gg/	.	.	16ggg\JJ
8gg/L 8bb-/	.	.	4bbb-\
8b-/	4ryy	.	.
8ee-/J 8gg/ 8bb-/	.	.	8bbb-\
=142	=142	=142	=142
8ee-/L 8ccc/ 8eee-/	4A-\ 4e-\ 4cc\	2eeee-TT/	8cccc\L
16bbn/L 16ddd/	.	.	16bbbn\L
16ccc/JJ 16eee-/	.	.	16cccc\JJ
16ddd/LL 16fff/	4ryy	.	16dddd\LL
16ccc/ 16eee-/	.	.	16cccc\
16bb-X/ 16ddd/	.	.	16bbb-X\
16aa-/JJ 16ccc/	.	.	16aaa-\JJ
*v	*v	*	*
=143	=143	=143
16b-\LL 16ff#X\ 16aan\	2bbb-TT/	16fff#X\LL
16gg\JJ 16bb-\	.	16ggg\JJ
16bb-\LL 16ggg\	.	16gggg\LL
16aa\ 16fff\	.	16ffff\
16gg\ 16eee-\	.	16eeee-\
16bb-\ 16ddd\	.	16dddd\
16aa\ 16ccc\	.	16aaa-\
16gg\JJ 16bb-\	.	16ggg\JJ
=144	=144	=144
16b-/LL 16ff#X/ 16aan/	2bbb-TT/	16fff#X\LL
16gg/ 16bb-/	.	16ggg\
16aa-X/ 16ccc/	.	16aaa-\
16gg/JJ 16bb-/	.	16ggg\JJ
8b-/L 8ffn/ 8aa-/	.	8fffn\L
8B-/J 8a-/ 8dd/	.	8bb-\J
*clefF4	*	*
!!LO:LB:g=original
=145	=145	=145
4E-\ 4B-\ 4g\ 4ee-\	2bbb-TT/	16eee-\LL 16eeee-\
.	.	16eee-\ 16eeee-\
.	.	16eee-\ 16eeee-\
.	.	16eee-\JJ 16eeee-\
4r	.	4eee-\ 4eeee-\
.	32qqaaan\LLL	.
.	32qqbbb-\	.
.	32qqbbbn\	.
.	32qqcccc\	.
.	32qqcccc#X\	.
.	32qqdddd\JJJ	.
*clefG2	*	*
=146	=146	=146
*^	*	*
8ee-/L 8ccc/ 8eee-/	4A-\ 4e-\ 4cc\	2eeee-TT\	8cccc\L
16bbn/L 16ddd/	.	.	16bbb-\L
16ccc/JJ 16eee-/	.	.	16cccc\JJ
16ddd/LL 16fff/	4ryy	.	16dddd\LL
16ccc/ 16eee-/	.	.	16cccc\
16bb-X/ 16ddd/	.	.	16bbb-X\
16aa-/JJ 16ccc/	.	.	16aaa-\JJ
*v	*v	*	*
=147	=147	=147
8gg/ 8bb-/	2bbb-TT\	8ggg\
8g/L 8ee-/ 8gg/	.	4eee-\
8B-/	.	.
8g/J 8ee-/ 8gg/	.	8ggg\
=148	=148	=148
8B-/L 8a-/ 8dd/ 8gg/ 8bb-/	2bbb-TT\	8ggg\L
8ff#X/ 8aan/	.	8fff#X\
8b-/ 8ffn/ 8aa-X/	.	8fffn\
8dd/J 8ff/	.	8ddd\J
=149	=149	=149
*^	*	*
16b-/LL 16ee-/	4E-\ 4B-\ 4g\	2bbb-TT\	16eee-\LL
16ee-/JJ 16gg/	.	.	16ggg\JJ
8gg/L 8bb-/	.	.	4bbb-\
8b-/	4ryy	.	.
8ee-/J 8gg/ 8bb-/	.	.	8bbb-\
!!LO:LB:g=original
=150	=150	=150	=150
8ee-/L 8ccc/ 8eee-/	4A-\ 4e-\ 4cc\	2eeee-TT\	8cccc\L
16bbn/L 16ddd/	.	.	16bbbn\L
16ccc/JJ 16eee-/	.	.	16cccc\
16ddd/LL 16fff/	4ryy	.	16dddd\
16ccc/ 16eee-/	.	.	16cccc\
16bb-X/ 16ddd/	.	.	16bbb-X\
16aa-/JJ 16ccc/	.	.	16aaa-\JJ
*v	*v	*	*
=151	=151	=151
16b-\LL 16ff#X\ 16aan\	2bbb-TT\	16fff#X\LL
16gg\JJ 16bb-\	.	16ggg\JJ
16bb-\LL 16ggg\	.	16gggg\LL
16aa-X\ 16fff\	.	16ffff\
16gg\ 16eee-\	.	16eeee-\
16bb-\ 16ddd\	.	16dddd\
16aa-\ 16ccc\	.	16aaa-\
16gg\JJ 16bb-\	.	16ggg\JJ
=152	=152	=152
16b-\LL 16ff#X\ 16aan\	2bbb-TT\	16fff#X\LL
16gg\ 16bb-\	.	16ggg\
16aa-X\ 16ccc\	.	16aaa-\
16gg\JJ 16bb-\	.	16ggg\JJ
!LO:TX:t=P:problem=mixed beam	!	!
8ffn\L 8aa-X\	.	8fffn\L
8B-/J 8a-/ 8dd/	.	8bb-\J
=153	=153	=153
4E-\ 4B-\ 4g\ 4ee-\	2bbb-TT\	16eee-\LL 16eeee-\
.	.	16eee-\ 16eeee-\
.	.	16eee-\ 16eeee-\
.	.	16eee-\JJ 16eeee-\
4r	.	4eee-\ 4eeee-\
*	*v	*v
2ryy	4bbb-\
.	64cccc\LLLL
.	64bbb-\
.	64aaan\
.	64bbb-\
.	64bbbn\
.	64cccc\
.	64cccc#X\
.	64dddd\
.	64eeee-\
.	64bbb-X\
.	64aaa\
.	64bbb-\
.	64bbbn\
.	64ccccn\
.	64cccc#X\
.	64dddd\JJJJ
!!LO:LB:g=original
2ryy	64eeee-\LLLL
.	64bbb-X\
.	64bbbn\
.	64ccccn\
.	64cccc#X\
.	64dddd\
.	64eeee-\
.	64bbbn\
.	64ccccn\
.	64cccc#X\
.	64dddd\
.	64eeee-\
.	64ccccn\
.	64cccc#X\
.	64dddd\
.	64eeee-\
.	64cccc#X\
.	64dddd\
.	64eeee-\J
.	32dddd\
.	32eeee-\JJJ
.	2eeee-TT\
4ryy	.
16ryy	.
32ryy	.
64ryy	.
4ryy	8dddd\L
.	8eeee-\J
!LO:CL:ed	!
*clefF4	*
=154	=154
64qqEE-\LLLL	64qqeeee-\LLLL
64qqBB-\	64qqeee-\
64qqG\JJJJ	64qqbb-\JJJJ
8e-\	8ee-\
*	*X8va
!	!LO:TX:a:t=loco
8r	8r
4r	4r
!	!LO:TX:a:t=[segno]
=155||	=155||
*>H	*
!	!LO:TX:a:t=Tempo Imo.
16EEE-/LL 16EE-/	16GG</ 16G</
16FF/ 16F/	16ryy
16GG/ 16G/	16ee-\ 16bb-\ 16eee-\
16AA-/JJ 16A-/	16ryy
!LO:TX:a:t=ms	!LO:TX:b:t=md
16BB-/LL 16B-/	16EE-<\
16C/ 16c/	16ryy
16BB-/ 16B-/	16ee-\ 16bb-\ 16eee-\
16AAn/JJ 16An/	16ryy
=156	=156
!	!LO:TX:b:t=md
16BB-/LL 16B-/	16EE-<\
16C/ 16c/	16ryy
16BB-/ 16B-/	16ee-\ 16bb-\ 16eee-\
16AAn/JJ 16An/	16ryy
16BB-/LL 16B-/	16EE-<\
16C/ 16c/	16ryy
16BB-\ 16B-\	16ee-\ 16bb-\ 16eee-\
16AAn\JJ 16An\	16ryy
=157	=157
16BB-/LL 16B-/	16EE-<\
16E-/ 16e-/	16ryy
16E-/ 16e-/	16gg\ 16eee-\ 16ggg\
16D/JJ 16d/	16ryy
16D/LL 16d/	16EE-<\
16C/ 16c/	16ryy
16C/ 16c/	16gg\ 16eee-\ 16ggg\
16BB-/JJ 16B-/	16ryy
=158	=158
16BB-/LL 16B-/	16BBB-<\
16AAn/ 16An/	16ryy
16AA-X/ 16A-X/	16ff\ 16ddd\ 16fff\
16GG/JJ 16G/	16ryy
16FF/LL 16F/	16BBB-<\
16DD/ 16D/	16ryy
16EE-/ 16E-/	16dd\ 16aa-\ 16ddd\
16EEn/JJ 16En/	16ryy
=159	=159
16BBBB-\LL 16BBB-\	16FF</ 16F</
16EEn\ 16En\	16ryy
16FF\ 16F\	16dd\ 16aa-\ 16ddd\
16GG\JJ 16G\	16ryy
16AA-\LL 16A-\	16BBB-<\
16BB-\ 16B-\	16ryy
16AA-\ 16A-\	16dd\ 16aa-\ 16ddd\
16GG\JJ 16G\	16ryy
!!LO:PB:g=original
=160	=160
16AA-/LL 16A-/	16BBB-<\
16BB-/ 16B-/	16ryy
16AA-/ 16A-/	16dd\ 16aa-\ 16ddd\
16GG/JJ 16G/	16ryy
16AA-/LL 16A-/	16BBB-<\
16BB-/ 16B-/	16ryy
16AA-/ 16A-/	16dd\ 16aa-\ 16ddd\
16GG/JJ 16G/	16ryy
=161	=161
16AA-/LL 16A-/	16BBB-<\
16GG/ 16G/	16ryy
16AA-/ 16A-/	16dd\ 16aa-\ 16ddd\
16C/JJ 16c/	16ryy
16C/LL 16c/	16BBB-<\
16BB-/ 16B-/	16ryy
16BB-\ 16B-\	16dd\ 16aa-\ 16ddd\
16AA-/JJ 16A-/	16ryy
=162	=162
16AA-/LL 16A-/	16EE-<\
16GG/ 16G/	16ryy
16GG/ 16G/	16ee-\ 16bb-\ 16eee-\
16FF#X/JJ 16F#X/	16ryy
16GG/LL 16G/	16EE-<\
16BBB-/ 16BB-/	16ryy
16EE-/ 16E-/	16ee-\ 16bb-\ 16eee-\
16FFn/JJ 16Fn/	16ryy
=163	=163
16EEE-\ 16EE-\	16GG</ 16G</
16FF\LL 16F\	16ryy
16GG/ 16G/	16ee-\ 16bb-\ 16eee-\
16AA-\JJ 16A-\	16ryy
16BB-/LL 16B-/	16EE-<\
16C/ 16c/	16ryy
16BB-/ 16B-/	16ee-\ 16bb-\ 16eee-\
16AAn\JJ 16An\	16ryy
=164	=164
16BB-/LL 16B-/	16EE-<\
16C/ 16c/	16ryy
16BB-\ 16B-\	16ee-\ 16bb-\ 16eee-\
16AAn/JJ 16An/	16ryy
16BB-/LL 16B-/	16EE-<\
16C/ 16c/	16ryy
16BB-/ 16B-/	16ee-\ 16bb-\ 16eee-\
16AA/JJ 16A/	16ryy
!!LO:LB:g=original
=165	=165
16BB-/LL 16B-/	16EE-<\
16E-/ 16e-/	16ryy
16E-/ 16e-/	16gg\ 16eee-\ 16ggg\
16D/JJ 16d/	16ryy
16D/LL 16d/	16EE-<\
16C/ 16c/	16ryy
16C/ 16c/	16gg\ 16eee-\ 16ggg\
16BB-/JJ 16B-/	16ryy
=166	=166
16BB-/LL 16B-/	16BBB-<\
16AAn/ 16An/	16ryy
16AA-X/ 16A-X/	16ff\ 16ddd\ 16fff\
16GG/JJ 16G/	16ryy
16FF/LL 16F/	16BBB-<\
16DD/ 16D/	16ryy
16EE-/ 16E-/	16dd\ 16aa-\ 16ddd\
16EEn/JJ 16En/	16ryy
=167	=167
16BBBB-\ 16BBB-\	16FF</ 16F</
16EEn/LL 16En/	16ryy
16FF/ 16F/	16dd\ 16aa-\ 16ddd\
16GG/JJ 16G/	16ryy
16AA-/LL 16A-/	16BBB-<\
16BB-/ 16B-/	16ryy
16AA-/ 16A-/	16dd\ 16aa-\ 16ddd\
16GG/JJ 16G/	16ryy
=168	=168
16AA-/LL 16A-/	16BBB-<\
16BB-/ 16B-/	16ryy
16AA-/ 16A-/	16dd\ 16aa-\ 16ddd\
16GG/JJ 16G/	16ryy
16AA-/LL 16A-/	16BBB-<\
16BB-/ 16B-/	16ryy
16AA-/ 16A-/	16dd\ 16aa-\ 16ddd\
16GG/JJ 16G/	16ryy
=169	=169
16AA-/LL 16A-/	16BBB-<\
16GG/ 16G/	16ryy
16AA-/ 16A-/	16dd\ 16aa-\ 16ddd\
16C\JJ 16c\	16ryy
16C/LL 16c/	16BBB-<\
16BB-/ 16B-/	16ryy
16BB-\ 16B-\	16dd\ 16aa-\ 16ddd\
16AA-/JJ 16A-/	16ryy
!!LO:LB:g=original
=170	=170
16AA-\LL 16A-\	16EE-<\
16GG/ 16G/	16ryy
16GG/ 16G/	16ee-\ 16bb-\ 16eee-\
16FF#X/JJ 16F#X/	16ryy
16GG/LL 16G/	16EE-<\
16E-\JJ 16e-\	16ryy
8ryy	16e-\LL 16ee-\
.	16ee-\JJ 16eee-\
=171||	=171||
=172||	=172||
!LO:TX:t=P:problem=mixed beam	!
16AAA-/LL	16r
16e-\	16ee-\LL 16ccc\ 16eee-\
16BBn\ 16d\	16dd\ 16bbn\ 16ddd\
16e-\JJ	16ee-\JJ 16ccc\ 16eee-\
16C\LL 16f\	16ff\LL 16ddd\ 16fff\
16e-\	16ee-\ 16ccc\ 16eee-\
16AA-\ 16d\	16dd\ 16bb-X\ 16ddd\
16c\JJ	16cc\JJ 16aa-\ 16ccc\
=173	=173
8BBB-/ 8BB-/	16b-\LL 16gg\ 16bb-\
.	16B-\JJ 16b-\
8BB-\ 8G\ 8e-\	16r
.	16b-\LL 16bb-\
8r	16bb-\ 16bbb-\
.	16b-\JJ 16bb-\
8BB-\ 8G\ 8e-\	16r
.	16b-\ 16bb-\
=174	=174
!LO:TX:t=P:problem=mixed beam	!
16BBB-/LL	16an\LL 16ff#X\ 16aan\
16B-\	16b-\ 16gg\ 16bb-\
16BB-\ 16c\	16cc\ 16aa-X\ 16ccc\
16B-\JJ	16b-\JJ 16gg\ 16bb-\
8BB-\L 8A-\	16a-X\LL 16ffn\ 16aa-X\
.	16bb-\JJ 16bbb-\
8F\J	16f\LL 16dd\ 16ff\
.	16bb-\JJ 16bbb-\
=175	=175
!LO:TX:t=P:problem=mixed beam	!
16EEE-/LL 16EE-/	16e-\LL 16b-\ 16ee-\
16G\	16g\ 16gg\
16B-\JJ	16b-\ 16bb-\
16r	16B-\JJ 16b-\
!!LO:LB:g=original
16e-\LL	16ee-\LL 16eee-\
16g\	16gg\ 16ggg\
16b-\JJ	16bb-\ 16bbb-\
16r	16b-\JJ 16bb-\
=176	=176
!LO:TX:t=P:problem=mixed beam	!
16AAA-/LL	16r
16e-\	16ee-\LL 16ccc\ 16eee-\
16BBn/ 16d/	16dd\ 16bbn\ 16ddd\
16e-\JJ	16ee-\JJ 16ccc\ 16eee-\
16C\LL 16f\	16ff\LL 16ddd\ 16fff\
16e-\	16ee-\ 16ccc\ 16eee-\
16AA-\ 16d\	16dd\ 16bb-X\ 16ddd\
16c\JJ	16cc\JJ 16aa-\ 16ccc\
=177	=177
!LO:TX:t=P:problem=mixed beam	!
16BBB-/LL	16an\LL 16ff#X\ 16aan\
16B-\	16b-\ 16gg\ 16bb-\
16E-\ 16g\	16gg\ 16eee-\ 16ggg\
16f\JJ	16ffn\JJ 16ddd\ 16fff\
16C\LL 16e-\	16ee-\LL 16ccc\ 16eee-\
16d\	16dd\ 16bb-\ 16ddd\
16BB-\ 16c\	16cc\ 16aa-X\ 16ccc\
16B-\JJ	16b-\JJ 16gg\ 16bb-\
=178	=178
!LO:TX:t=P:problem=mixed beam	!
16BBB-/LL	16an\LL 16ff#X\ 16aan\
16G\	16b-\ 16gg\ 16bb-\
16AA-\ 16c\	16cc\ 16aa-X\ 16ccc\
16B-\JJ	16b-\JJ 16gg\ 16bb-\
8FF\L 8A-\	16a-X\LL 16een\ 16aa-X\
.	16bb-\JJ 16bbb-\
8BBB-\J 8D\	16dLL\ 16b-\ 16dd\
.	16bb-\JJ 16bbb-\
=179	=179
!LO:TX:t=P:problem=mixed beam	!
16EEE-/LL 16EE-/	4e-\ 4g\ 4ee-\
16EE-/ 16E-/	.
16GG/ 16G/	.
16BB-/JJ 16B-/	.
16E-\ 16e-\	16r
16r	16e-\LL 16ee-\
8r	16g\ 16gg\
.	16b-\JJ 16bb-\
=180	=180
!LO:TX:t=P:problem=mixed beam	!
16AAA-/LL	16r
16e-\	16ee-\LL 16ccc\ 16eee-\
16BBn\ 16d\	16dd\ 16bbn\ 16ddd\
16e-\JJ	16ee-\JJ 16ccc\ 16eee-\
16C\LL 16f\	16ffn\LL 16ddd\ 16fff\
16e-\	16ee-\ 16ccc\ 16eee-\
16AA-\ 16d\	16dd\ 16bb-X\ 16ddd\
16c\JJ	16cc\JJ 16aa-\ 16ccc\
!!LO:LB:g=original
=181	=181
8BBB-/ 8BB-/	16b-\LL 16gg\ 16bb-\
.	16B-\JJ 16b-\
8BB-\ 8G\ 8e-\	16r
.	16b-\LL 16bb-\
8r	16bb-\ 16bbb-\
.	16b-\JJ 16bb-\
8BB-\ 8G\ 8e-\	16r
.	16b-\ 16bb-\
=182	=182
!LO:TX:t=P:problem=mixed beam	!
16BBB-/LL	16an\LL 16ff#X\ 16aan\
16G\	16b-\ 16gg\ 16bb-\
16BB-/ 16c/	16cc\ 16aa-X\ 16ccc\
16B-\JJ	16b-\JJ 16gg\ 16bb-\
8BB-\L 8A-\	16a-X\LL 16ffn\ 16aa-X\
.	16bb-\JJ 16bbb-\
8F\J	16f\LL 16dd\ 16ff\
.	16bb-\JJ 16bbb-\
=183	=183
!LO:TX:t=P:problem=mixed beam	!
16EEE-/LL 16EE-/	16e-\LL 16b-\ 16ee-\
16G\	16g\ 16gg\
16B-\JJ	16b-\ 16bb-\
16r	16B-\JJ 16b-\
16e-\LL	16ee-\LL 16eee-\
16g\	16gg\ 16ggg\
16b-\JJ	16bb-\ 16bbb-\
16r	16b-\JJ 16bb-\
=184	=184
!LO:TX:t=P:problem=mixed beam	!
16AAA-/LL	16r
16e-\	16ee-\LL 16ccc\ 16eee-\
16BBn\ 16d\	16dd\ 16bbn\ 16ddd\
16e-\JJ	16ee-\JJ 16ccc\ 16eee-\
16C\LL 16f\	16ff\LL 16ddd\ 16fff\
16e-\	16ee-\ 16ccc\ 16eee-\
16AA-\ 16d\	16dd\ 16bb-X\ 16ddd\
16c\JJ	16cc\JJ 16aa-\ 16ccc\
=185	=185
!LO:TX:t=P:problem=mixed beam	!
16BBB-/LL	16an\LL 16ff#X\ 16aan\
16B-\JJ	16b-\JJ 16gg\ 16bb-\
*clefG2	*
32E-/LLL 32B-/ 32g/ 32ee-/	32eee-\LLL 36ggg\
32dd/	32ddd\ 32fff\
32cc/	32ccc\ 32eee-\
32b-/	32bb-\ 32ddd\
32a-/JJJ	32aa\JJJ 32ccc\
!!LO:LB:g=original
32g/LLL	32gg\LLL 32bb-\
32f/	32ff#\ 32aa\
32e-/	32ee-\ 32gg\
32d/	32dd\ 32ff#\
32c/	32cc\ 32ee-\
32B-/	32b-\ 32dd\
32A-/	32a\ 32cc\
32G/JJJ	32g\JJJ 32b-\
*clefF4	*
=186	=186
32BB-\LLL 32F#X\	32f#X\LLL 32an\
32G\	32g\ 32b-\
32A-\	32a-X\ 32cc\
32G\	32g\ 32b-\
32Fn\	32fn\ 32a-X\
32E-\	32e-\ 32g\
32D\	32d\ 32f\
32C\	32c\ 32e-\
32BB-\	32B-\JJJ 32d\
32AA-\	32A-/LLL 32c/
32GG\	32G/ 32B-/
32FF\	32F/ 32A-/
32EE-\	32E-/ 32G/
32DD\	32D/ 32F/
32CC\	32C/ 32E-/
32BBB-\	32BB-/ 32D/
32AAA-\JJJ	32AA-/JJJ
=187	=187
16EEE-\LL 16EE-\	16GG</ 16E-</
16EEE-\JJ 16EE-\	16r
!	!LO:TX:t=P:problem=mixed beam
16GGG\LL 16GG\	8e-\L 8g\ 8ee-\
16AAA-\JJ 16AA-\	.
16BBB-\LL 16BB-\	8E-</ 8G</ 8e-</
16CC\ 16C\	.
16BBB-\ 16BB-\	8e-\J 8g\ 8ee-\
16AAAn\JJ 16AAn\	.
=188	=188
!	!LO:TX:t=P:problem=mixed beam
16CC\LL 16C\	8E-</L 8A-</ 8e-</
16DD\ 16D\	.
16CC\ 16C\	8e-\J 8a-\ 8ee-\
16BBBn\JJ 16BBn\	.
!	!LO:TX:t=P:problem=mixed beam
16DD\LL 16D\	8E-</L 8F#X</ 8An</ 8e-</
16EE-\ 16E-\	.
16DD\ 16D\	8e-\J 8f#X\ 8an\ 8ee-\
16CC\JJ 16C\	.
!!LO:LB:g=original
=189	=189
8BBB-/ 8BB-/	16e-/LL 16f#X/ 16an/
.	16g/JJ 16b-/
*Xtuplet	*Xtuplet
*clefG2	*
36B-\LLL 36g\ 36ee-\	36eee-\LLL 36ggg\
36dd\	36ddd\ 36fff\
36cc\	36ccc\ 36eee-\
36b-\	36bb-\ 36ddd\
36a-\	36aa-\ 36ccc\
36g\	36gg\ 36bb-\
36f\	36ff\ 36aa-\
36e-\	36ee-\ 36gg\
36d\	36dd\ 36ff\
32c\	32cc\ 32ee-\
32B-\	32b-\ 32dd\
32A-\	32a\ 32cc\
32G\JJJ	32g\JJJ 32b-\
*clefF4	*
=190	=190
!	!LO:TX:t=P:problem=mixed beam
36BB-\LLL 36F#X\	36f#X\LLL 36an\
36G\	36g\ 36b-\
36A-\	36a-X/ 36cc/
36G\	36g\ 36b-\
36Fn\	36fn\ 36a-\
36E-\	36e-\ 36g\
36D\	36d\ 36f\
36C\	36c\ 36e-\
36BB-\	36B-/ 36d/
32AA-\	32A-/ 32c/
32GG\	32G</ 32B-</
32FF\	32F</ 32A-</
32EE-\	32E-</ 32G</
32DD\	32D</ 32F</
32CC\	32C</ 32E-</
32BBB-\	32BB-</ 32D</
32AAA-\JJJ	32AA-</JJJ
=191	=191
!	!LO:TX:t=P:problem=mixed beam
16EEE-\LL 16EE-\	8E-</L
16FFF\ 16FF\	.
16GGG\ 16GG\	8ee-\J 8gg\ 8eee-\
16AAA-\JJ 16AA-\	.
!	!LO:TX:t=P:problem=mixed beam
16BBB-\LL 16BB-\	8E-</L 8G</ 8e-</
16CC\ 16C\	.
16BBB-\ 16BB-\	8ee-\J 8gg\ 8eee-\
16AAAn\JJ 16AAn\	.
!!LO:PB:g=original
=192	=192
16CC\LL 16C\	8E-</L 8A-</ 8e-</
16DD\ 16D\	.
16CC\ 16C\	8ee-\J 8aa-\ 8eee-\
16BBBn\JJ 16BBn\	.
16DD\LL 16D\	8e-</L 8e-</ 8f#X</ 8an</
16EE-\ 16E-\	.
16DD\ 16D\	8ee-\J 8ff#X\ 8aan\ 8eee-\
16CC\JJ 16C\	.
=193	=193
8BBB-\ 8BB-\	16e-/LL 16f#X/ 16an/
.	16g/JJ 16b-/
*clefG2	*
128%3B-\LLL 128%3g\ 128%3gg\	128%3ggg\LLL 128%3bbb-\
128%3ff#X\	128%3fff#X\ 128%3aaan\
128%3ffn\	128%3fffn\ 128%3aaa-X\
128%3een\	128%3eeen\ 128%3ggg\
128%3ee-X\	128%3eee-X\ 128%3ggg-X\
128%3dd\	128%3ddd\ 128%3fffn\
128%3cc#X\	128%3ccc#X\ 128%3eeen\
128%3ccn\	128%3cccn\ 128%3eee-X\
128%3bn\	128%3bbn\ 128%3ddd\
128%3b-X\	128%3bb-X\ 128%3ddd-X\
128%3an\	128%3aan\ 128%3ccc\
128%3a-X\	128%3aa-X\ 128%3ccc-X\
128%3g\	128%3gg\ 128%3bb-\
128%3f#X\	128%3ff#X\ 128%3aan\
128%3fn\	128%3ffn\ 128%3aa-X\
128%3en\JJJ	128%3een\JJJ 128%3gg\
*clefF4	*
=194	=194
36BB-\LLL 36A-\ 36e-\	36ee-X\LLL 36gg-X\
36d\	36dd\ 36ff\
36c#X\	36cc#X\ 36een\
36cn\	36ccn\ 36ee-X\
36Bn\	36bn\ 36dd\
36B-X\	36b-X\ 36dd-X\
36An\	36an\ 36cc\
36A-X\	36a-X\ 36cc-X\
36G\	36g\ 36b-\
288%7F#X\	288%7f#X\ 288%7an\
288%7Fn\	288%7fn\ 288%7a-X\
288%7En\	288%7en\ 288%7g\
288%7E-X\	288%7e-X\ 288%7g-X\
288%7D\	288%7d\ 288%7fn\
288%7C#X\	288%7c#X\ 288%7en\
288%7Cn\	288%7cn\ 288%7e-X\
288%7BBn\	288%7Bn\ 288%7d\
288%7BB-X\	288%7B-X\
32AA-\JJJ	32A-\JJJ
!!LO:LB:g=original
=195	=195
!LO:TX:t=P:problem=mixed beam	!
8EEE-/L 8EE-/	16G\LL 16e-\
.	16g\ 16ee-\
b8E-/J 8G/	16g\ 16ee-\
.	16G\JJ 16e-\
8CC\L 8C\	16G\LL 16e-\ 16g\
.	16g\ 16ee-\ 16gg\
8E-\J 8G\	16g\ 16ee-\ 16gg\
.	16G\JJ 16e-\ 16g\
=196	=196
8CC-X\L 8C-X\	16An\LL 16e-\ 16an\
.	16a\ 16ee-\ 16aan\
8E-\J 8An\	16a\ 16ee-\ 16aa\
.	16A\JJ 16e-\ 16a\
8BBB-\L 8BB-\	16B-\LL 16d\ 16b-\
.	16b-\ 16dd\ 16bb-\
8D\J 8A-X\ 8d\	16b-\ 16dd\ 16bb-\
.	16B-\JJ 16d\ 16b-\
=197	=197
8EE-\L 8E-\	16e-\LL 16g\ 16ee-\
.	16ee-\ 16gg\ 16eee-\
8G\J 8e-\	16ee-\ 16gg\ 16eee-\
.	16e-\JJ 16g\ 16ee-\
8CC\L 8C\	16g\LL 16ee-\ 16gg\
.	16gg\ 16eee-\ 16ggg\
8G\J 8e-\ 8g\	16gg\ 16eee-\ 16ggg\
.	16g\JJ 16ee-\ 16gg\
=198	=198
8CC-X\L 8C-X\	16an\LL 16ee-\ 16aan\
.	16aa\ 16eee-\ 16aaa\
8An\J 8e-\ 8an\	16aa\ 16eee-\ 16aaa\
*	*X8va
!	!LO:TX:a:t=loc(o)
.	16a\JJ 16ee-\ 16aa\
!!LO:LB:g=original
!LO:TX:t=P:problem=mixed beam	!
8BBB-/L 8BB-/	16b-\LL 16dd\ 16bb-\
.	16bb-\ 16ddd\ 16bbb-\
8A-X\J 8d\ 8b-\	16bb-\ 16ddd\ 16bbb-\
.	16b-\JJ 16dd\ 16bb-\
=199	=199
16EE-\LL 16E-\	16ee-\LL 16gg\ 16eee-\
*clefG2	*
16e-\ 16g\ 16ee-\	16eee-\ 16ggg\ 16eeee-\
16d\ 16g\ 16dd\	16ddd\ 16ggg\ 16dddd\
16e-\ 16g\ 16ee-\	16eee-\ 16eeee-\
16An\ 16e-\ 16an\	16aan\ 16eee-\ 16aaan\
16B-\ 16e-\ 16b-\	16bb-\ 16eee-\ 16bbb-\
16F#X\ 16e-\ 16f#X\	16ff#X\ 16eee-\ 16fff#X\
16G\JJ 16e-\ 16g\	16gg\JJ 16eee-\ 16ggg\
*	*X8va
*clefF4	*
=200	=200
16E-\LL 16A-\ 16c-X\ 16e-\	16ee-\LL 16aa-\ 16ccc-X\ 16eee-\
16E-\ 16A-\ 16c-\ 16e-\	16ee-\ 16aa-\ 16ccc-\ 16eee-\
16D\ 16A-\ 16c-\ 16d\	16dd\ 16aa-\ 16ccc-\ 16ddd\
16E-\ 16A-\ 16c-\ 16e-\	16ee-\ 16aa-\ 16ccc-\ 16eee-\
16BB-\ 16E-\ 16B-\	16b-\ 16ee-\ 16bb-\
16C-X\ 16E-\ 16c-\	16cc-X\ 16ee-\ 16ccc-X\
16GG\ 16E-\ 16G\	16b-\ 16ee-\ 16gg\
16AA-\JJ 16E-\ 16A-\	16a-\JJ 16ee-\ 16aa-\
=201	=201
16EE-\LL 16E-\	16r
16E-\ 16G\ 16e-\	16ee-\LL 16gg\ 16eee-\
16D\ 16G\ 16d\	16dd\ 16gg\ 16ddd\
16E-\ 16G\ 16e-\	16ee-\ 16gg\ 16eee-\
16AAn\ 16E-\ 16An\	16an\ 16ee-\ 16aan\
16BB-\ 16E-\ 16B-\	16b-\ 16ee-\ 16bb-\
16FF#X\ 16E-\ 16F#X\	16f#X\ 16ee-\ 16ff#X\
16GG\JJ 16E-\ 16G\	16g\JJ 16ee-\ 16gg\
=202	=202
16EE-\LL 16AA-\ 16C-X\ 16E-\	16e-\LL 16a-\ 16cc-X\ 16ee-\
16EE-\ 16AA-\ 16C-\ 16E-\	16e-\ 16a-\ 16cc-\ 16ee-\
16DD\ 16AA-\ 16C-X\ 16D\	16d\ 16a-\ 16cc-\ 16dd\
16EE-\ 16AA-\ 16C-\ 16E-\	16e-\ 16a-\ 16cc-\ 16ee-\
16BBB-\ 16EE-\ 16BB-\	16B-\ 16e-\ 16b-\
16CC\ 16EE-\ 16C-\	16c-X\ 16e-\ 16cc-\
16GGG\ 16EE-\ 16GG\	16G\ 16e-\ 16g\
16AAA-\JJ 16EE-\ 16AA-\	16A-\JJ 16e-\ 16a-\
!!LO:LB:g=original
=203	=203
16EEE-\LL 16EE-\	16E-</LL 16e-</
16EEE-\ 16EE-\	16E-</JJ 16e-</
16GGG\ 16GG\	16G\LL 16g\
16BBB-\ 16BB-\	16B-\ 16b-\
16EE-\ 16E-\	16e-\ 16ee-\
16EE-\ 16E-\	16e-\ 16ee-\
16GG\ 16G\	16g\ 16gg\
16BB-\JJ 16B-\	16b-\JJ 16bb-\
=204	=204
16E-\LL 16e-\	16ee-\LL 16eee-\
16EE-\ 16E-\	16e-\ 16ee-\
16GG\ 16G\	16g\ 16gg\
16BB-\ 16B-\	16b-\ 16bb-\
16E-\ 16e-\	16ee-\ 16eee-\
16E-\ 16e-\	16ee-\ 16eee-\
16G\ 16g\	16gg\ 16ggg\
*clefG2	*
16B-\JJ 16b-\	16bb-\JJ 16bbb-\
=205	=205
8e-\ 8ee-\	8eee-\ 8eeee-\
*	*X8va
8r	8r
*clefF4	*
8E-\ 8B-\ 8e-\	8g\ 8ee-\ 8gg\
8r	8r
=206	=206
8EE-\ 8BB-\ 8E-\	8G/ 8e-/
8r	8r
*clefG2	*
8G\ 8e-\ 8b-\ 8ee-\	8e-/ 8b-/ 8ee-/
8r	8r
!LO:CL:ed	!
*clefF4	*
=207	=207
*2\right	*
!	!LO:TX:a:t=Fine.
32qqEEE-\ 32qqEE-\	32qqE-;/
2EEE-\ 2EE-\	2E-;/
==	==
*-	*-
!!!system-decoration: [(s1,s2)]
!!!RDF**kern: > = above
!!!RDF**kern: < = below
!!!EED: Leszek Kubiak
!!!EEV: 2021-05-20
!!!ENC: Andrzej Gręziak
!!!END: 2021-05-01
